;FLAVOR:UltiGCode
;TIME:3447      
;MATERIAL:13662     
;MATERIAL2:0         

;Layer count: 200
;LAYER:0
M107
G0 F9000 X88.10 Y90.75 Z0.30
;TYPE:SKIRT
G1 F1800 X142.60 Y90.75 E8.17500
G1 X142.60 Y98.15 E9.28500
G1 X143.20 Y98.15 E9.37500
G1 X143.20 Y137.85 E15.33000
G1 X124.40 Y137.85 E18.15000
G1 X124.40 Y137.25 E18.24000
G1 X106.20 Y137.25 E20.97000
G1 X106.20 Y137.85 E21.06000
G1 X87.60 Y137.85 E23.85000
G1 X87.60 Y98.15 E29.80500
G1 X88.10 Y98.15 E29.88000
G1 X88.10 Y90.75 E30.99000
G10
G0 F9000 X92.10 Y94.75
;TYPE:WALL-INNER
G11
G1 F1800 X138.60 Y94.75 E37.96500
G1 X138.60 Y95.25 E38.04000
G1 X133.60 Y95.25 E38.79000
G1 X133.60 Y100.75 E39.61500
G1 X138.60 Y100.75 E40.36500
G1 X138.60 Y101.25 E40.44000
G1 X127.60 Y101.25 E42.09000
G1 X127.60 Y133.25 E46.89000
G1 X103.10 Y133.25 E50.56500
G1 X103.10 Y101.25 E55.36500
G1 X92.10 Y101.25 E57.01500
G1 X92.10 Y100.75 E57.09000
G1 X97.10 Y100.75 E57.84000
G1 X97.10 Y95.25 E58.66500
G1 X92.10 Y95.25 E59.41500
G1 X92.10 Y94.75 E59.49000
G0 F9000 X91.60 Y94.25
;TYPE:WALL-OUTER
G1 F1800 X139.10 Y94.25 E66.61500
G1 X139.10 Y95.75 E66.84000
G1 X134.10 Y95.75 E67.59000
G1 X134.10 Y100.25 E68.26500
G1 X139.10 Y100.25 E69.01500
G1 X139.10 Y101.75 E69.24000
G1 X128.10 Y101.75 E70.89000
G1 X128.10 Y133.75 E75.69000
G1 X102.60 Y133.75 E79.51500
G1 X102.60 Y101.75 E84.31500
G1 X91.60 Y101.75 E85.96500
G1 X91.60 Y100.25 E86.19000
G1 X96.60 Y100.25 E86.94000
G1 X96.60 Y95.75 E87.61500
G1 X91.60 Y95.75 E88.36500
G1 X91.60 Y94.25 E88.59000
G0 F9000 X91.95 Y94.51
G0 X97.27 Y95.50
;TYPE:FILL
G1 F1800 X102.84 Y101.08 E89.77158
G0 F9000 X103.27 Y101.50
G1 F1800 X127.42 Y125.66 E94.89478
G0 F9000 X127.42 Y126.36
G1 F1800 X103.27 Y102.21 E100.01798
G0 F9000 X103.27 Y102.92
G1 F1800 X127.42 Y127.07 E105.14107
G0 F9000 X127.42 Y127.78
G1 F1800 X103.27 Y103.63 E110.26417
G0 F9000 X103.27 Y104.33
G1 F1800 X127.42 Y128.48 E115.38726
G0 F9000 X127.42 Y129.19
G1 F1800 X103.27 Y105.04 E120.51036
G0 F9000 X103.27 Y105.75
G1 F1800 X127.42 Y129.90 E125.63356
G0 F9000 X127.42 Y130.61
G1 F1800 X103.27 Y106.45 E130.75676
G0 F9000 X103.27 Y107.16
G1 F1800 X127.42 Y131.31 E135.87996
G0 F9000 X127.42 Y132.02
G1 F1800 X103.27 Y107.87 E141.00316
G0 F9000 X103.27 Y108.58
G1 F1800 X127.42 Y132.73 E146.12636
G0 F9000 X127.06 Y133.07
G1 F1800 X103.27 Y109.28 E151.17319
G0 F9000 X103.27 Y109.99
G1 F1800 X126.36 Y133.07 E156.07005
G0 F9000 X125.65 Y133.07
G1 F1800 X103.27 Y110.70 E160.81693
G0 F9000 X103.27 Y111.41
G1 F1800 X124.94 Y133.07 E165.41383
G0 F9000 X124.24 Y133.07
G1 F1800 X103.27 Y112.11 E169.86075
G0 F9000 X103.27 Y112.82
G1 F1800 X123.53 Y133.07 E174.15770
G0 F9000 X122.82 Y133.07
G1 F1800 X103.27 Y113.53 E178.30467
G0 F9000 X103.27 Y114.23
G1 F1800 X122.11 Y133.07 E182.30166
G0 F9000 X121.41 Y133.07
G1 F1800 X103.27 Y114.94 E186.14867
G0 F9000 X103.27 Y115.65
G1 F1800 X120.70 Y133.07 E189.84561
G0 F9000 X119.99 Y133.07
G1 F1800 X103.27 Y116.36 E193.39245
G0 F9000 X103.27 Y117.06
G1 F1800 X119.29 Y133.07 E196.78932
G0 F9000 X118.58 Y133.07
G1 F1800 X103.27 Y117.77 E200.03622
G0 F9000 X103.27 Y118.48
G1 F1800 X117.87 Y133.07 E203.13313
G0 F9000 X117.17 Y133.07
G1 F1800 X103.27 Y119.18 E206.08007
G0 F9000 X103.27 Y119.89
G1 F1800 X116.46 Y133.07 E208.87703
G0 F9000 X115.75 Y133.07
G1 F1800 X103.27 Y120.60 E211.52401
G0 F9000 X103.27 Y121.30
G1 F1800 X115.04 Y133.07 E214.02102
G0 F9000 X114.34 Y133.07
G1 F1800 X103.27 Y122.01 E216.36805
G0 F9000 X103.27 Y122.72
G1 F1800 X113.63 Y133.07 E218.56489
G0 F9000 X112.92 Y133.07
G1 F1800 X103.27 Y123.43 E220.61175
G0 F9000 X103.27 Y124.13
G1 F1800 X112.22 Y133.07 E222.50864
G0 F9000 X111.51 Y133.07
G1 F1800 X103.27 Y124.84 E224.25554
G0 F9000 X103.27 Y125.55
G1 F1800 X110.80 Y133.07 E225.85247
G0 F9000 X110.09 Y133.07
G1 F1800 X103.27 Y126.25 E227.29942
G0 F9000 X103.27 Y126.96
G1 F1800 X109.39 Y133.07 E228.59640
G0 F9000 X108.68 Y133.07
G1 F1800 X103.27 Y127.67 E229.74340
G0 F9000 X103.27 Y128.38
G1 F1800 X107.97 Y133.07 E230.74042
G0 F9000 X107.27 Y133.07
G1 F1800 X103.27 Y129.08 E231.58725
G0 F9000 X103.27 Y129.79
G1 F1800 X106.56 Y133.07 E232.28410
G0 F9000 X105.85 Y133.07
G1 F1800 X103.27 Y130.50 E232.83098
G0 F9000 X103.27 Y131.20
G1 F1800 X105.14 Y133.07 E233.22788
G0 F9000 X104.44 Y133.07
G1 F1800 X103.27 Y131.91 E233.47480
G0 F9000 X103.27 Y132.62
G1 F1800 X103.73 Y133.07 E233.57174
G0 F9000 X127.42 Y124.95
G1 F1800 X97.40 Y94.92 E239.94080
G0 F9000 X98.11 Y94.92
G1 F1800 X127.42 Y124.24 E246.15987
G0 F9000 X127.42 Y123.53
G1 F1800 X98.81 Y94.92 E252.22897
G0 F9000 X99.52 Y94.92
G1 F1800 X127.42 Y122.83 E258.14798
G0 F9000 X127.42 Y122.12
G1 F1800 X100.23 Y94.92 E263.91702
G0 F9000 X100.94 Y94.92
G1 F1800 X127.42 Y121.41 E269.53608
G0 F9000 X127.42 Y120.71
G1 F1800 X101.64 Y94.92 E275.00506
G0 F9000 X102.35 Y94.92
G1 F1800 X127.42 Y120.00 E280.32405
G0 F9000 X127.42 Y119.29
G1 F1800 X103.06 Y94.92 E285.49308
G0 F9000 X103.76 Y94.92
G1 F1800 X127.42 Y118.58 E290.51212
G0 F9000 X127.42 Y117.88
G1 F1800 X104.47 Y94.92 E295.38119
G0 F9000 X105.18 Y94.92
G1 F1800 X127.42 Y117.17 E300.10028
G0 F9000 X127.42 Y116.46
G1 F1800 X105.89 Y94.92 E304.66918
G0 F9000 X106.59 Y94.92
G1 F1800 X127.42 Y115.76 E309.08810
G0 F9000 X127.42 Y115.05
G1 F1800 X107.30 Y94.92 E313.35704
G0 F9000 X108.01 Y94.92
G1 F1800 X127.42 Y114.34 E317.47580
G0 F9000 X127.42 Y113.63
G1 F1800 X108.71 Y94.92 E321.44458
G0 F9000 X109.42 Y94.92
G1 F1800 X127.42 Y112.93 E325.26338
G0 F9000 X127.42 Y112.22
G1 F1800 X110.13 Y94.92 E328.93220
G0 F9000 X110.83 Y94.92
G1 F1800 X127.42 Y111.51 E332.45105
G0 F9000 X127.42 Y110.81
G1 F1800 X111.54 Y94.92 E335.81992
G0 F9000 X112.25 Y94.92
G1 F1800 X127.42 Y110.10 E339.03881
G0 F9000 X127.42 Y109.39
G1 F1800 X112.96 Y94.92 E342.10772
G0 F9000 X113.66 Y94.92
G1 F1800 X127.42 Y108.69 E345.02666
G0 F9000 X127.42 Y107.98
G1 F1800 X114.37 Y94.92 E347.79562
G0 F9000 X115.08 Y94.92
G1 F1800 X127.42 Y107.27 E350.41439
G0 F9000 X127.42 Y106.56
G1 F1800 X115.78 Y94.92 E352.88318
G0 F9000 X116.49 Y94.92
G1 F1800 X127.42 Y105.86 E355.20200
G0 F9000 X127.42 Y105.15
G1 F1800 X117.20 Y94.92 E357.37083
G0 F9000 X117.91 Y94.92
G1 F1800 X127.42 Y104.44 E359.38969
G0 F9000 X127.42 Y103.73
G1 F1800 X118.61 Y94.92 E361.25858
G0 F9000 X119.32 Y94.92
G1 F1800 X127.42 Y103.03 E362.97748
G0 F9000 X127.42 Y102.32
G1 F1800 X120.03 Y94.92 E364.54641
G0 F9000 X120.73 Y94.92
G1 F1800 X127.42 Y101.61 E365.96536
G0 F9000 X127.59 Y101.08
G1 F1800 X121.44 Y94.92 E367.26997
G0 F9000 X122.15 Y94.92
G1 F1800 X128.30 Y101.08 E368.57459
G0 F9000 X129.01 Y101.08
G1 F1800 X122.86 Y94.92 E369.87920
G0 F9000 X123.56 Y94.92
G1 F1800 X129.71 Y101.08 E371.18381
G0 F9000 X130.42 Y101.08
G1 F1800 X124.27 Y94.92 E372.48842
G0 F9000 X124.98 Y94.92
G1 F1800 X131.13 Y101.08 E373.79314
G0 F9000 X131.84 Y101.08
G1 F1800 X125.68 Y94.92 E375.09786
G0 F9000 X126.39 Y94.92
G1 F1800 X132.54 Y101.08 E376.40258
G0 F9000 X133.25 Y101.08
G1 F1800 X127.10 Y94.92 E377.70730
G0 F9000 X127.81 Y94.92
G1 F1800 X133.42 Y100.54 E378.89884
G0 F9000 X133.42 Y99.83
G1 F1800 X128.51 Y94.92 E379.94041
G0 F9000 X129.22 Y94.92
G1 F1800 X133.42 Y99.13 E380.83200
G0 F9000 X133.42 Y98.42
G1 F1800 X129.93 Y94.92 E381.57361
G0 F9000 X130.63 Y94.92
G1 F1800 X133.42 Y97.71 E382.16525
G0 F9000 X133.42 Y97.01
G1 F1800 X131.34 Y94.92 E382.60691
G0 F9000 X132.05 Y94.92
G1 F1800 X133.42 Y96.30 E382.89859
G0 F9000 X133.42 Y95.59
G1 F1800 X132.75 Y94.92 E383.04029
G0 F9000 X102.14 Y101.08
G1 F1800 X97.27 Y96.21 E384.07179
G0 F9000 X97.27 Y96.92
G1 F1800 X101.43 Y101.08 E384.95330
G0 F9000 X100.72 Y101.08
G1 F1800 X97.27 Y97.63 E385.68484
G0 F9000 X97.27 Y98.33
G1 F1800 X100.01 Y101.08 E386.26640
G0 F9000 X99.31 Y101.08
G1 F1800 X97.27 Y99.04 E386.69798
G0 F9000 X97.27 Y99.75
G1 F1800 X98.60 Y101.08 E386.97948
G0 F9000 X97.89 Y101.08
G1 F1800 X97.27 Y100.45 E387.11100
G10
G0 F9000 X101.65 Y102.70
;TYPE:SUPPORT
G11
G1 F1800 X101.65 Y134.60 E391.89600
G1 X90.85 Y134.60 E393.51600
G1 X90.85 Y102.70 E398.30100
G1 X101.65 Y102.70 E399.92100
G0 F9000 X101.72 Y103.32
G1 F1800 X90.77 Y103.32 E401.56350
G0 F9000 X90.95 Y103.32
G0 X96.66 Y102.80
G0 X96.66 Y102.63
G1 F1800 X96.66 Y134.68 E406.37100
G0 F9000 X96.66 Y134.50
G0 X101.55 Y129.99
G0 X101.72 Y129.99
G1 F1800 X90.77 Y129.99 E408.01350
G0 F9000 X90.95 Y129.99
G0 X90.95 Y123.32
G0 X90.77 Y123.32
G1 F1800 X101.72 Y123.32 E409.65600
G0 F9000 X101.55 Y123.32
G0 X101.55 Y116.66
G0 X101.72 Y116.66
G1 F1800 X90.77 Y116.66 E411.29850
G0 F9000 X90.95 Y116.66
G0 X90.95 Y109.99
G0 X90.77 Y109.99
G1 F1800 X101.72 Y109.99 E412.94100
G10
G0 F9000 X129.05 Y102.70
G11
G1 F1800 X139.95 Y102.70 E414.57600
G1 X139.95 Y134.60 E419.36100
G1 X129.05 Y134.60 E420.99600
G1 X129.05 Y102.70 E425.78100
G0 F9000 X128.97 Y103.32
G1 F1800 X140.02 Y103.32 E427.43850
G0 F9000 X139.85 Y103.32
G0 X136.65 Y102.80
G0 X136.65 Y102.63
G1 F1800 X136.65 Y134.68 E432.24600
G0 F9000 X136.65 Y134.50
G0 X139.85 Y129.99
G0 X140.02 Y129.99
G1 F1800 X128.97 Y129.99 E433.90350
G0 F9000 X129.15 Y129.99
G0 X129.99 Y134.50
G0 X129.99 Y134.68
G1 F1800 X129.99 Y102.63 E438.71100
G0 F9000 X129.99 Y102.80
G0 X129.15 Y109.99
G0 X128.97 Y109.99
G1 F1800 X140.02 Y109.99 E440.36850
G0 F9000 X139.85 Y109.99
G0 X139.85 Y116.66
G0 X140.02 Y116.66
G1 F1800 X128.97 Y116.66 E442.02600
G0 F9000 X129.15 Y116.66
G0 X129.15 Y123.32
G0 X128.97 Y123.32
G1 F1800 X140.02 Y123.32 E443.68350
;LAYER:1
M106 S255
G10
G0 F9000 X127.60 Y133.25 Z0.50
;TYPE:WALL-INNER
G11
G1 F2220 X103.10 Y133.25 E446.13350
G1 X103.10 Y101.25 E449.33350
G1 X92.10 Y101.25 E450.43350
G1 X92.10 Y100.75 E450.48350
G1 X97.10 Y100.75 E450.98350
G1 X97.10 Y95.25 E451.53350
G1 X92.10 Y95.25 E452.03350
G1 X92.10 Y94.75 E452.08350
G1 X138.60 Y94.75 E456.73350
G1 X138.60 Y95.25 E456.78350
G1 X133.60 Y95.25 E457.28350
G1 X133.60 Y100.75 E457.83350
G1 X138.60 Y100.75 E458.33350
G1 X138.60 Y101.25 E458.38350
G1 X127.60 Y101.25 E459.48350
G1 X127.60 Y133.25 E462.68350
G0 F9000 X128.10 Y133.75
;TYPE:WALL-OUTER
G1 F2220 X102.60 Y133.75 E465.23350
G1 X102.60 Y101.75 E468.43350
G1 X91.60 Y101.75 E469.53350
G1 X91.60 Y100.25 E469.68350
G1 X96.60 Y100.25 E470.18350
G1 X96.60 Y95.75 E470.63350
G1 X91.60 Y95.75 E471.13350
G1 X91.60 Y94.25 E471.28350
G1 X139.10 Y94.25 E476.03350
G1 X139.10 Y95.75 E476.18350
G1 X134.10 Y95.75 E476.68350
G1 X134.10 Y100.25 E477.13350
G1 X139.10 Y100.25 E477.63350
G1 X139.10 Y101.75 E477.78350
G1 X128.10 Y101.75 E478.88350
G1 X128.10 Y133.75 E482.08350
G0 F9000 X126.79 Y133.07
;TYPE:FILL
G1 F2220 X127.42 Y132.44 E482.17359
G0 F9000 X127.42 Y131.73
G1 F2220 X126.08 Y133.07 E482.36366
G0 F9000 X125.37 Y133.07
G1 F2220 X127.42 Y131.02 E482.65371
G0 F9000 X127.42 Y130.32
G1 F2220 X124.67 Y133.07 E483.04382
G0 F9000 X123.96 Y133.07
G1 F2220 X127.42 Y129.61 E483.53399
G0 F9000 X127.42 Y128.90
G1 F2220 X123.25 Y133.07 E484.12414
G0 F9000 X122.54 Y133.07
G1 F2220 X127.42 Y128.19 E484.81428
G0 F9000 X127.42 Y127.49
G1 F2220 X121.84 Y133.07 E485.60440
G0 F9000 X121.13 Y133.07
G1 F2220 X127.42 Y126.78 E486.49451
G0 F9000 X127.42 Y126.07
G1 F2220 X120.42 Y133.07 E487.48460
G0 F9000 X119.72 Y133.07
G1 F2220 X127.42 Y125.37 E488.57467
G0 F9000 X127.42 Y124.66
G1 F2220 X119.01 Y133.07 E489.76473
G0 F9000 X118.30 Y133.07
G1 F2220 X127.42 Y123.95 E491.05485
G0 F9000 X127.42 Y123.25
G1 F2220 X117.59 Y133.07 E492.44502
G0 F9000 X116.89 Y133.07
G1 F2220 X127.42 Y122.54 E493.93518
G0 F9000 X127.42 Y121.83
G1 F2220 X116.18 Y133.07 E495.52532
G0 F9000 X115.47 Y133.07
G1 F2220 X127.42 Y121.12 E497.21545
G0 F9000 X127.42 Y120.42
G1 F2220 X114.77 Y133.07 E499.00556
G0 F9000 X114.06 Y133.07
G1 F2220 X127.42 Y119.71 E500.89565
G0 F9000 X127.42 Y119.00
G1 F2220 X113.35 Y133.07 E502.88574
G0 F9000 X112.64 Y133.07
G1 F2220 X127.42 Y118.30 E504.97580
G0 F9000 X127.42 Y117.59
G1 F2220 X111.94 Y133.07 E507.16585
G0 F9000 X111.23 Y133.07
G1 F2220 X127.42 Y116.88 E509.45582
G0 F9000 X127.42 Y116.17
G1 F2220 X110.52 Y133.07 E511.84584
G0 F9000 X109.81 Y133.07
G1 F2220 X127.42 Y115.47 E514.33584
G0 F9000 X127.42 Y114.76
G1 F2220 X109.11 Y133.07 E516.92584
G0 F9000 X108.40 Y133.07
G1 F2220 X127.42 Y114.05 E519.61581
G0 F9000 X127.42 Y113.35
G1 F2220 X107.69 Y133.07 E522.40577
G0 F9000 X106.99 Y133.07
G1 F2220 X127.42 Y112.64 E525.29579
G0 F9000 X127.42 Y111.93
G1 F2220 X106.28 Y133.07 E528.28579
G0 F9000 X105.57 Y133.07
G1 F2220 X127.42 Y111.22 E531.37577
G0 F9000 X127.42 Y110.52
G1 F2220 X104.87 Y133.07 E534.56575
G0 F9000 X104.16 Y133.07
G1 F2220 X127.42 Y109.81 E537.85577
G0 F9000 X127.42 Y109.10
G1 F2220 X103.45 Y133.07 E541.24578
G0 F9000 X103.27 Y132.55
G1 F2220 X127.42 Y108.40 E544.66097
G0 F9000 X127.42 Y107.69
G1 F2220 X103.27 Y131.84 E548.07615
G0 F9000 X103.27 Y131.13
G1 F2220 X127.42 Y106.98 E551.49134
G0 F9000 X127.42 Y106.28
G1 F2220 X103.27 Y130.43 E554.90652
G0 F9000 X103.27 Y129.72
G1 F2220 X127.42 Y105.57 E558.32178
G0 F9000 X127.42 Y104.86
G1 F2220 X103.27 Y129.01 E561.73696
G0 F9000 X103.27 Y128.30
G1 F2220 X127.42 Y104.15 E565.15214
G0 F9000 X127.42 Y103.45
G1 F2220 X103.27 Y127.60 E568.56733
G0 F9000 X103.27 Y126.89
G1 F2220 X127.42 Y102.74 E571.98251
G0 F9000 X127.42 Y102.03
G1 F2220 X103.27 Y126.18 E575.39770
G0 F9000 X103.27 Y125.47
G1 F2220 X127.42 Y101.33 E578.81288
G0 F9000 X127.67 Y101.08
G1 F2220 X133.42 Y95.33 E579.62605
G0 F9000 X133.12 Y94.92
G1 F2220 X103.27 Y124.77 E583.84649
G0 F9000 X103.27 Y124.06
G1 F2220 X132.41 Y94.92 E587.96694
G0 F9000 X131.70 Y94.92
G1 F2220 X103.27 Y123.35 E591.98741
G0 F9000 X103.27 Y122.65
G1 F2220 X131.00 Y94.92 E595.90782
G0 F9000 X130.29 Y94.92
G1 F2220 X103.27 Y121.94 E599.72818
G0 F9000 X103.27 Y121.23
G1 F2220 X129.58 Y94.92 E603.44855
G0 F9000 X128.87 Y94.92
G1 F2220 X103.27 Y120.53 E607.06894
G0 F9000 X103.27 Y119.82
G1 F2220 X128.17 Y94.92 E610.58934
G0 F9000 X127.46 Y94.92
G1 F2220 X103.27 Y119.11 E614.00976
G0 F9000 X103.27 Y118.40
G1 F2220 X126.75 Y94.92 E617.33019
G0 F9000 X126.05 Y94.92
G1 F2220 X103.27 Y117.70 E620.55064
G0 F9000 X103.27 Y116.99
G1 F2220 X125.34 Y94.92 E623.67110
G0 F9000 X124.63 Y94.92
G1 F2220 X103.27 Y116.28 E626.69158
G0 F9000 X103.27 Y115.58
G1 F2220 X123.92 Y94.92 E629.61193
G0 F9000 X123.22 Y94.92
G1 F2220 X103.27 Y114.87 E632.43229
G0 F9000 X103.27 Y114.16
G1 F2220 X122.51 Y94.92 E635.15267
G0 F9000 X121.80 Y94.92
G1 F2220 X103.27 Y113.45 E637.77307
G0 F9000 X103.27 Y112.75
G1 F2220 X121.09 Y94.92 E640.29348
G0 F9000 X120.39 Y94.92
G1 F2220 X103.27 Y112.04 E642.71391
G0 F9000 X103.27 Y111.33
G1 F2220 X119.68 Y94.92 E645.03435
G0 F9000 X118.97 Y94.92
G1 F2220 X103.27 Y110.63 E647.25481
G0 F9000 X103.27 Y109.92
G1 F2220 X118.27 Y94.92 E649.37528
G0 F9000 X117.56 Y94.92
G1 F2220 X103.27 Y109.21 E651.39570
G0 F9000 X103.27 Y108.50
G1 F2220 X116.85 Y94.92 E653.31606
G0 F9000 X116.14 Y94.92
G1 F2220 X103.27 Y107.80 E655.13643
G0 F9000 X103.27 Y107.09
G1 F2220 X115.44 Y94.92 E656.85682
G0 F9000 X114.73 Y94.92
G1 F2220 X103.27 Y106.38 E658.47723
G0 F9000 X103.27 Y105.68
G1 F2220 X114.02 Y94.92 E659.99765
G0 F9000 X113.32 Y94.92
G1 F2220 X103.27 Y104.97 E661.41809
G0 F9000 X103.27 Y104.26
G1 F2220 X112.61 Y94.92 E662.73854
G0 F9000 X111.90 Y94.92
G1 F2220 X103.27 Y103.56 E663.95900
G0 F9000 X103.27 Y102.85
G1 F2220 X111.20 Y94.92 E665.07941
G0 F9000 X110.49 Y94.92
G1 F2220 X103.27 Y102.14 E666.09977
G0 F9000 X103.27 Y101.43
G1 F2220 X109.78 Y94.92 E667.02014
G0 F9000 X109.07 Y94.92
G1 F2220 X102.92 Y101.08 E667.88988
G0 F9000 X102.22 Y101.08
G1 F2220 X108.37 Y94.92 E668.75962
G0 F9000 X107.66 Y94.92
G1 F2220 X101.51 Y101.08 E669.62936
G0 F9000 X100.80 Y101.08
G1 F2220 X106.95 Y94.92 E670.49910
G0 F9000 X106.25 Y94.92
G1 F2220 X100.09 Y101.08 E671.36892
G0 F9000 X99.39 Y101.08
G1 F2220 X105.54 Y94.92 E672.23873
G0 F9000 X104.83 Y94.92
G1 F2220 X98.68 Y101.08 E673.10854
G0 F9000 X97.97 Y101.08
G1 F2220 X104.12 Y94.92 E673.97835
G0 F9000 X103.42 Y94.92
G1 F2220 X97.27 Y101.07 E674.84725
G0 F9000 X97.27 Y100.36
G1 F2220 X102.71 Y94.92 E675.61615
G0 F9000 X102.00 Y94.92
G1 F2220 X97.27 Y99.66 E676.28508
G0 F9000 X97.27 Y98.95
G1 F2220 X101.30 Y94.92 E676.85401
G0 F9000 X100.59 Y94.92
