;FLAVOR:UltiGCode
;TIME:11441     
;MATERIAL:16570     
;MATERIAL2:0         

;Layer count: 208
;LAYER:0
M107
G0 F9000 X197.11 Y119.20 Z0.30
;TYPE:SKIRT
G1 F1200 X214.11 Y119.20 E2.04000
G1 X214.11 Y135.60 E4.00800
G1 X197.11 Y135.60 E6.04800
G1 X197.11 Y119.20 E8.01600
G0 F9000 X156.70 Y112.06
G1 F1200 X156.70 Y168.66 E14.80800
G1 X67.40 Y168.66 E25.52400
G1 X67.40 Y112.06 E32.31600
G1 X80.90 Y112.06 E33.93600
G1 X80.90 Y111.06 E34.05600
G1 X80.20 Y111.06 E34.14000
G1 X80.20 Y93.70 E36.22380
G1 X101.80 Y93.50 E38.81591
G1 X101.80 Y89.06 E39.34811
G1 X133.30 Y89.06 E43.12811
G1 X133.30 Y93.54 E43.66499
G1 X143.70 Y93.74 E44.91322
G1 X143.70 Y98.96 E45.54022
G1 X143.71 Y102.85 E46.00630
G1 X143.70 Y102.85 E46.00762
G1 X143.70 Y111.06 E46.99366
G1 X143.30 Y111.06 E47.04178
G1 X143.30 Y112.06 E47.16178
G1 X156.70 Y112.06 E48.76990
G10
G0 F9000 X84.95 Y104.36
;TYPE:WALL-OUTER
G11
G1 F1200 X84.30 Y104.36 E48.84766
G1 X84.30 Y100.18 E49.34974
G1 X84.79 Y100.20 E49.40801
G1 X84.91 Y100.18 E49.42310
G1 X84.95 Y101.91 E49.62991
G1 X84.95 Y104.36 E49.92499
G0 F9000 X84.71 Y104.22
;TYPE:FILL
G1 F1200 X84.63 Y103.86 E49.96996
G1 X84.62 Y103.29 E50.03211
G1 X84.62 Y102.73 E50.09425
G1 X84.62 Y102.16 E50.15640
G1 X84.62 Y101.59 E50.21830
G1 X84.61 Y101.02 E50.27871
G1 X84.44 Y100.56 E50.33708
G10
G0 F9000 X85.70 Y113.55
;TYPE:WALL-INNER
G11
G1 F1200 X138.50 Y113.55 E56.67296
G1 X138.50 Y116.66 E57.04688
G1 X139.31 Y116.66 E57.14444
G1 X139.32 Y155.91 E61.85444
G1 X84.89 Y155.91 E68.38556
G1 X84.89 Y116.66 E73.09556
G1 X85.70 Y116.66 E73.19312
G1 X85.70 Y113.55 E73.56704
G0 F9000 X90.59 Y113.55
G1 F1200 X90.59 Y133.57 E75.96944
G1 X106.61 Y133.57 E77.89184
G1 X106.61 Y122.60 E79.20884
G1 X111.59 Y122.60 E79.80644
G1 X111.59 Y128.78 E80.54804
G1 X119.61 Y128.78 E81.51032
G1 X119.61 Y113.55 E83.33756
G1 X90.59 Y113.55 E86.81984
G0 F9000 X90.65 Y133.51
G0 X92.75 Y141.21
G1 F1200 X92.75 Y151.91 E88.10384
G1 X99.95 Y151.91 E88.96784
G1 X99.95 Y141.21 E90.25184
G1 X92.75 Y141.21 E91.11584
G0 F9000 X120.59 Y129.57
G1 F1200 X135.61 Y129.57 E92.91824
G1 X135.61 Y113.55 E94.84064
G1 X120.59 Y113.55 E96.64304
G1 X120.59 Y129.57 E98.56544
G0 F9000 X120.99 Y129.17
;TYPE:WALL-OUTER
G1 F1200 X135.21 Y129.17 E100.27184
G1 X135.21 Y113.95 E102.09824
G1 X120.99 Y113.95 E103.80464
G1 X120.99 Y129.17 E105.63104
G0 F9000 X120.69 Y129.17
G0 X119.51 Y128.38
G0 X119.21 Y128.38
G1 F1200 X119.21 Y113.95 E107.36216
G1 X90.99 Y113.95 E110.74844
G1 X90.99 Y133.17 E113.05484
G1 X106.21 Y133.17 E114.88124
G1 X106.21 Y122.20 E116.19824
G1 X111.99 Y122.20 E116.89184
G1 X111.99 Y128.38 E117.63356
G1 X119.21 Y128.38 E118.49984
G0 F9000 X119.51 Y128.38
G0 X120.65 Y113.61
G0 X135.55 Y113.61
G0 X138.60 Y116.26
G0 X138.90 Y116.26
G1 F1200 X139.72 Y116.26 E118.59740
G1 X139.72 Y156.31 E123.40340
G1 X84.49 Y156.31 E130.03052
G1 X84.49 Y116.26 E134.83652
G1 X85.30 Y116.26 E134.93408
G1 X85.30 Y113.15 E135.30800
G1 X138.90 Y113.15 E141.73988
G1 X138.90 Y116.26 E142.11380
G10
G0 F9000 X139.25 Y111.86
G11
G1 F1200 X139.25 Y109.26 E142.42580
G1 X139.90 Y109.26 E142.50368
G1 X139.90 Y111.86 E142.81568
G1 X139.25 Y111.86 E142.89344
G10
G0 F9000 X99.55 Y141.61
G11
G1 F1200 X93.15 Y141.61 E143.66144
G1 X93.15 Y151.51 E144.84944
G1 X99.55 Y151.51 E145.61744
G1 X99.55 Y141.61 E146.80544
G10
G0 F9000 X84.95 Y111.86
G11
G1 F1200 X84.30 Y111.86 E146.88320
G1 X84.30 Y109.26 E147.19520
G1 X84.95 Y109.26 E147.27296
G1 X84.95 Y111.86 E147.58496
G10
G0 F9000 X85.84 Y113.84
;TYPE:FILL
G11
G1 F1200 X90.45 Y118.45 E148.36739
G0 F9000 X90.45 Y119.02
G1 F1200 X85.84 Y114.41 E149.14990
G0 F9000 X85.84 Y114.97
G1 F1200 X90.45 Y119.58 E149.93233
G0 F9000 X90.45 Y120.15
G1 F1200 X85.84 Y115.54 E150.71476
G0 F9000 X85.84 Y116.11
G1 F1200 X90.45 Y120.72 E151.49727
G0 F9000 X90.45 Y121.28
G1 F1200 X85.84 Y116.67 E152.27970
G0 F9000 X85.41 Y116.80
G1 F1200 X90.45 Y121.85 E153.13603
G0 F9000 X90.45 Y122.41
G1 F1200 X85.03 Y116.99 E154.05635
G0 F9000 X85.03 Y117.56
G1 F1200 X90.45 Y122.98 E154.97666
G0 F9000 X90.45 Y123.55
G1 F1200 X85.03 Y118.12 E155.89697
G0 F9000 X85.03 Y118.69
G1 F1200 X90.45 Y124.11 E156.81729
G0 F9000 X90.45 Y124.68
G1 F1200 X85.03 Y119.25 E157.73760
G0 F9000 X85.03 Y119.82
G1 F1200 X90.45 Y125.24 E158.65791
G0 F9000 X90.45 Y125.81
G1 F1200 X85.03 Y120.39 E159.57823
G0 F9000 X85.03 Y120.95
G1 F1200 X90.45 Y126.37 E160.49854
G0 F9000 X90.45 Y126.94
G1 F1200 X85.03 Y121.52 E161.41877
G0 F9000 X85.03 Y122.08
G1 F1200 X90.45 Y127.50 E162.33908
G0 F9000 X90.45 Y128.07
G1 F1200 X85.03 Y122.65 E163.25940
G0 F9000 X85.03 Y123.21
G1 F1200 X90.45 Y128.64 E164.17963
G0 F9000 X90.45 Y129.20
G1 F1200 X85.03 Y123.78 E165.09994
G0 F9000 X85.03 Y124.34
G1 F1200 X90.45 Y129.77 E166.02025
G0 F9000 X90.45 Y130.33
G1 F1200 X85.03 Y124.91 E166.94048
G0 F9000 X85.03 Y125.48
G1 F1200 X90.45 Y130.90 E167.86080
G0 F9000 X90.45 Y131.47
G1 F1200 X85.03 Y126.04 E168.78111
G0 F9000 X85.03 Y126.61
G1 F1200 X90.45 Y132.03 E169.70134
G0 F9000 X90.45 Y132.60
G1 F1200 X85.03 Y127.17 E170.62165
G0 F9000 X85.03 Y127.74
G1 F1200 X90.45 Y133.16 E171.54196
G0 F9000 X91.00 Y133.71
G1 F1200 X98.36 Y141.07 E172.79091
G0 F9000 X97.80 Y141.07
G1 F1200 X85.03 Y128.31 E174.95755
G0 F9000 X85.03 Y128.87
G1 F1200 X97.23 Y141.07 E177.02821
G0 F9000 X96.67 Y141.07
G1 F1200 X85.03 Y129.44 E179.00282
G0 F9000 X85.03 Y130.00
G1 F1200 X96.10 Y141.07 E180.88146
G0 F9000 X95.53 Y141.07
G1 F1200 X85.03 Y130.57 E182.66413
G0 F9000 X85.03 Y131.13
G1 F1200 X94.97 Y141.07 E184.35075
G0 F9000 X94.40 Y141.07
G1 F1200 X85.03 Y131.70 E185.94132
G0 F9000 X85.03 Y132.26
G1 F1200 X93.84 Y141.07 E187.43592
G0 F9000 X93.27 Y141.07
G1 F1200 X85.03 Y132.83 E188.83454
G0 F9000 X85.03 Y133.40
G1 F1200 X92.70 Y141.07 E190.13712
G0 F9000 X92.61 Y141.54
G1 F1200 X85.03 Y133.96 E191.42383
G0 F9000 X85.03 Y134.53
G1 F1200 X92.61 Y142.11 E192.71062
G0 F9000 X92.61 Y142.68
G1 F1200 X85.03 Y135.09 E193.99733
G0 F9000 X85.03 Y135.66
G1 F1200 X92.61 Y143.24 E195.28404
G0 F9000 X92.61 Y143.81
G1 F1200 X85.03 Y136.22 E196.57083
G0 F9000 X85.03 Y136.79
G1 F1200 X92.61 Y144.37 E197.85754
G0 F9000 X92.61 Y144.94
G1 F1200 X85.03 Y137.36 E199.14425
G0 F9000 X85.03 Y137.92
G1 F1200 X92.61 Y145.50 E200.43104
G0 F9000 X92.61 Y146.07
G1 F1200 X85.03 Y138.49 E201.71775
G0 F9000 X85.03 Y139.05
G1 F1200 X92.61 Y146.63 E203.00445
G0 F9000 X92.61 Y147.20
G1 F1200 X85.03 Y139.62 E204.29125
G0 F9000 X85.03 Y140.18
G1 F1200 X92.61 Y147.77 E205.57796
G0 F9000 X92.61 Y148.33
G1 F1200 X85.03 Y140.75 E206.86466
G0 F9000 X85.03 Y141.31
G1 F1200 X92.61 Y148.90 E208.15146
G0 F9000 X92.61 Y149.46
G1 F1200 X85.03 Y141.88 E209.43817
G0 F9000 X85.03 Y142.45
G1 F1200 X92.61 Y150.03 E210.72487
G0 F9000 X92.61 Y150.59
G1 F1200 X85.03 Y143.01 E212.01158
G0 F9000 X85.03 Y143.58
G1 F1200 X92.61 Y151.16 E213.29837
G0 F9000 X92.61 Y151.73
G1 F1200 X85.03 Y144.14 E214.58508
G0 F9000 X85.03 Y144.71
G1 F1200 X96.09 Y155.77 E216.46237
G0 F9000 X96.66 Y155.77
G1 F1200 X92.94 Y152.05 E217.09359
G0 F9000 X93.50 Y152.05
G1 F1200 X97.22 Y155.77 E217.72481
G0 F9000 X97.79 Y155.77
G1 F1200 X94.07 Y152.05 E218.35611
G0 F9000 X94.64 Y152.05
G1 F1200 X98.36 Y155.77 E218.98742
G0 F9000 X98.92 Y155.77
G1 F1200 X95.20 Y152.05 E219.61864
G0 F9000 X95.77 Y152.05
G1 F1200 X99.49 Y155.77 E220.24986
G0 F9000 X100.05 Y155.77
G1 F1200 X96.33 Y152.05 E220.88116
G0 F9000 X96.90 Y152.05
G1 F1200 X100.62 Y155.77 E221.51238
G0 F9000 X101.18 Y155.77
G1 F1200 X97.46 Y152.05 E222.14360
G0 F9000 X98.03 Y152.05
G1 F1200 X101.75 Y155.77 E222.77491
G0 F9000 X102.31 Y155.77
G1 F1200 X98.59 Y152.05 E223.40613
G0 F9000 X99.16 Y152.05
G1 F1200 X102.88 Y155.77 E224.03735
G0 F9000 X103.45 Y155.77
G1 F1200 X99.73 Y152.05 E224.66865
G0 F9000 X100.09 Y151.85
G1 F1200 X104.01 Y155.77 E225.33364
G0 F9000 X104.58 Y155.77
G1 F1200 X100.09 Y151.29 E226.09469
G0 F9000 X100.09 Y150.72
G1 F1200 X105.14 Y155.77 E226.95179
G0 F9000 X105.71 Y155.77
G1 F1200 X100.09 Y150.16 E227.90477
G0 F9000 X100.09 Y149.59
G1 F1200 X106.27 Y155.77 E228.95380
G0 F9000 X106.84 Y155.77
G1 F1200 X100.09 Y149.02 E230.09889
G0 F9000 X100.09 Y148.46
G1 F1200 X107.41 Y155.77 E231.33986
G0 F9000 X107.97 Y155.77
G1 F1200 X100.09 Y147.89 E232.67689
G0 F9000 X100.09 Y147.33
G1 F1200 X108.54 Y155.77 E234.10997
G0 F9000 X109.10 Y155.77
G1 F1200 X100.09 Y146.76 E235.63902
G0 F9000 X100.09 Y146.20
G1 F1200 X109.67 Y155.77 E237.26403
G0 F9000 X110.23 Y155.77
G1 F1200 X100.09 Y145.63 E238.98510
G0 F9000 X100.09 Y145.06
G1 F1200 X110.80 Y155.77 E240.80214
G0 F9000 X111.36 Y155.77
G1 F1200 X100.09 Y144.50 E242.71515
G0 F9000 X100.09 Y143.93
G1 F1200 X111.93 Y155.77 E244.72421
G0 F9000 X112.50 Y155.77
G1 F1200 X100.09 Y143.37 E246.82924
G0 F9000 X100.09 Y142.80
G1 F1200 X113.06 Y155.77 E249.03023
G0 F9000 X113.63 Y155.77
G1 F1200 X100.09 Y142.24 E251.32728
G0 F9000 X100.09 Y141.67
G1 F1200 X114.19 Y155.77 E253.72039
G0 F9000 X114.76 Y155.77
G1 F1200 X100.09 Y141.10 E256.20938
G0 F9000 X100.06 Y141.07
G1 F1200 X92.70 Y133.71 E257.45832
G0 F9000 X93.27 Y133.71
G1 F1200 X115.33 Y155.77 E261.20203
G0 F9000 X115.89 Y155.77
G1 F1200 X93.83 Y133.71 E264.94574
G0 F9000 X94.40 Y133.71
G1 F1200 X116.46 Y155.77 E268.68936
G0 F9000 X117.02 Y155.77
G1 F1200 X94.96 Y133.71 E272.43298
G0 F9000 X95.53 Y133.71
G1 F1200 X117.59 Y155.77 E276.17669
G0 F9000 X118.15 Y155.77
G1 F1200 X96.09 Y133.71 E279.92039
G0 F9000 X96.66 Y133.71
G1 F1200 X118.72 Y155.77 E283.66401
G0 F9000 X119.28 Y155.77
G1 F1200 X97.22 Y133.71 E287.40772
G0 F9000 X97.79 Y133.71
G1 F1200 X119.85 Y155.77 E291.15142
G0 F9000 X120.42 Y155.77
G1 F1200 X98.36 Y133.71 E294.89505
G0 F9000 X98.92 Y133.71
G1 F1200 X120.98 Y155.77 E298.63875
G0 F9000 X121.55 Y155.77
G1 F1200 X99.49 Y133.71 E302.38246
G0 F9000 X100.05 Y133.71
G1 F1200 X122.11 Y155.77 E306.12608
G0 F9000 X122.68 Y155.77
G1 F1200 X100.62 Y133.71 E309.86979
G0 F9000 X101.19 Y133.71
G1 F1200 X123.25 Y155.77 E313.61349
G0 F9000 X123.81 Y155.77
G1 F1200 X101.75 Y133.71 E317.35711
G0 F9000 X102.32 Y133.71
G1 F1200 X124.38 Y155.77 E321.10082
G0 F9000 X124.94 Y155.77
G1 F1200 X102.88 Y133.71 E324.84453
G0 F9000 X103.45 Y133.71
G1 F1200 X125.51 Y155.77 E328.58815
G0 F9000 X126.07 Y155.77
G1 F1200 X104.01 Y133.71 E332.33185
G0 F9000 X104.58 Y133.71
G1 F1200 X126.64 Y155.77 E336.07556
G0 F9000 X127.20 Y155.77
G1 F1200 X105.14 Y133.71 E339.81918
G0 F9000 X105.71 Y133.71
G1 F1200 X127.77 Y155.77 E343.56280
G0 F9000 X128.34 Y155.77
G1 F1200 X106.28 Y133.71 E347.30651
G0 F9000 X106.75 Y133.62
G1 F1200 X128.90 Y155.77 E351.06549
G0 F9000 X129.47 Y155.77
G1 F1200 X106.75 Y133.06 E354.92044
G0 F9000 X106.75 Y132.49
G1 F1200 X130.03 Y155.77 E358.87135
G0 F9000 X130.60 Y155.77
G1 F1200 X106.75 Y131.93 E362.91832
G0 F9000 X106.75 Y131.36
G1 F1200 X131.16 Y155.77 E367.06126
G0 F9000 X131.73 Y155.77
G1 F1200 X106.75 Y130.79 E371.30017
G0 F9000 X106.75 Y130.23
G1 F1200 X132.30 Y155.77 E375.63513
G0 F9000 X132.86 Y155.77
G1 F1200 X106.75 Y129.66 E380.06606
G0 F9000 X106.75 Y129.10
G1 F1200 X133.43 Y155.77 E384.59296
G0 F9000 X133.99 Y155.77
G1 F1200 X106.75 Y128.53 E389.21591
G0 F9000 X106.75 Y127.97
G1 F1200 X134.56 Y155.77 E393.93483
G0 F9000 X135.12 Y155.77
G1 F1200 X106.75 Y127.40 E398.74971
G0 F9000 X106.75 Y126.83
G1 F1200 X135.69 Y155.77 E403.66066
G0 F9000 X136.25 Y155.77
G1 F1200 X106.75 Y126.27 E408.66757
G0 F9000 X106.75 Y125.70
G1 F1200 X136.82 Y155.77 E413.77044
G0 F9000 X137.39 Y155.77
G1 F1200 X106.75 Y125.14 E418.96938
G0 F9000 X106.75 Y124.57
G1 F1200 X137.95 Y155.77 E424.26428
G0 F9000 X138.52 Y155.77
G1 F1200 X111.66 Y128.92 E428.82164
G0 F9000 X111.45 Y128.71
G1 F1200 X106.75 Y124.01 E429.61934
G0 F9000 X106.75 Y123.44
G1 F1200 X111.45 Y128.14 E430.41712
G0 F9000 X111.45 Y127.58
G1 F1200 X106.75 Y122.87 E431.21491
G0 F9000 X107.18 Y122.74
G1 F1200 X111.45 Y127.01 E431.93989
G0 F9000 X111.45 Y126.44
G1 F1200 X107.75 Y122.74 E432.56899
G0 F9000 X108.31 Y122.74
G1 F1200 X111.45 Y125.88 E433.10204
G0 F9000 X111.45 Y125.31
G1 F1200 X108.88 Y122.74 E433.53903
G0 F9000 X109.44 Y122.74
G1 F1200 X111.45 Y124.75 E433.88014
G0 F9000 X111.45 Y124.18
G1 F1200 X110.01 Y122.74 E434.12519
G0 F9000 X110.58 Y122.74
G1 F1200 X111.45 Y123.61 E434.27419
G0 F9000 X111.45 Y123.05
G1 F1200 X111.14 Y122.74 E434.32731
G0 F9000 X111.65 Y128.72
G0 X112.23 Y128.92
G1 F1200 X139.08 Y155.77 E438.88476
G0 F9000 X139.18 Y155.30
G1 F1200 X112.80 Y128.92 E443.36176
G0 F9000 X113.36 Y128.92
G1 F1200 X139.18 Y154.73 E447.74271
G0 F9000 X139.18 Y154.17
G1 F1200 X113.93 Y128.92 E452.02769
G0 F9000 X114.49 Y128.92
G1 F1200 X139.18 Y153.60 E456.21654
G0 F9000 X139.18 Y153.03
G1 F1200 X115.06 Y128.92 E460.30933
G0 F9000 X115.62 Y128.92
G1 F1200 X139.18 Y152.47 E464.30615
G0 F9000 X139.18 Y151.90
G1 F1200 X116.19 Y128.92 E468.20700
G0 F9000 X116.76 Y128.92
G1 F1200 X139.18 Y151.34 E472.01180
G0 F9000 X139.18 Y150.77
G1 F1200 X117.32 Y128.92 E475.72047
G0 F9000 X117.89 Y128.92
G1 F1200 X139.18 Y150.21 E479.33316
G0 F9000 X139.18 Y149.64
G1 F1200 X118.45 Y128.92 E482.84988
G0 F9000 X119.02 Y128.92
G1 F1200 X139.18 Y149.07 E486.27055
G0 F9000 X139.18 Y148.51
G1 F1200 X119.58 Y128.92 E489.59526
G0 F9000 X119.75 Y128.52
G1 F1200 X120.45 Y129.22 E489.71422
G0 F9000 X120.45 Y128.65
G1 F1200 X119.75 Y127.95 E489.83319
G0 F9000 X119.75 Y127.39
G1 F1200 X120.45 Y128.09 E489.95206
G0 F9000 X120.45 Y127.52
G1 F1200 X119.75 Y126.82 E490.07103
G0 F9000 X119.75 Y126.26
G1 F1200 X120.45 Y126.96 E490.18999
G0 F9000 X120.45 Y126.39
G1 F1200 X119.75 Y125.69 E490.30887
G0 F9000 X119.75 Y125.12
G1 F1200 X120.45 Y125.83 E490.42783
G0 F9000 X120.45 Y125.26
G1 F1200 X119.75 Y124.56 E490.54680
G0 F9000 X119.75 Y123.99
G1 F1200 X120.45 Y124.69 E490.66568
G0 F9000 X120.45 Y124.13
G1 F1200 X119.75 Y123.43 E490.78464
G0 F9000 X119.75 Y122.86
G1 F1200 X120.45 Y123.56 E490.90360
G0 F9000 X120.45 Y123.00
G1 F1200 X119.75 Y122.30 E491.02257
G0 F9000 X119.75 Y121.73
G1 F1200 X120.45 Y122.43 E491.14153
G0 F9000 X120.45 Y121.87
G1 F1200 X119.75 Y121.17 E491.26049
G0 F9000 X119.75 Y120.60
G1 F1200 X120.45 Y121.30 E491.37946
G0 F9000 X120.45 Y120.73
G1 F1200 X119.75 Y120.03 E491.49834
G0 F9000 X119.75 Y119.47
G1 F1200 X120.45 Y120.17 E491.61730
G0 F9000 X120.45 Y119.60
G1 F1200 X119.75 Y118.90 E491.73626
G0 F9000 X119.75 Y118.34
G1 F1200 X120.45 Y119.04 E491.85514
G0 F9000 X120.45 Y118.47
G1 F1200 X119.75 Y117.77 E491.97411
G0 F9000 X119.75 Y117.20
G1 F1200 X120.45 Y117.91 E492.09307
G0 F9000 X120.45 Y117.34
G1 F1200 X119.75 Y116.64 E492.21195
G0 F9000 X119.75 Y116.07
G1 F1200 X120.45 Y116.78 E492.33091
G0 F9000 X120.45 Y116.21
G1 F1200 X119.75 Y115.51 E492.44988
G0 F9000 X119.75 Y114.94
G1 F1200 X120.45 Y115.64 E492.56876
G0 F9000 X120.45 Y115.08
G1 F1200 X119.75 Y114.38 E492.68772
G0 F9000 X119.75 Y113.81
G1 F1200 X120.45 Y114.51 E492.80668
G0 F9000 X120.45 Y113.95
G1 F1200 X120.19 Y113.69 E492.85072
G0 F9000 X135.55 Y113.61
G0 X135.75 Y113.97
G1 F1200 X138.36 Y116.58 E493.29357
G0 F9000 X138.58 Y116.80
G1 F1200 X139.17 Y117.39 E493.39420
G0 F9000 X139.17 Y117.96
G1 F1200 X135.75 Y114.54 E493.97511
G0 F9000 X135.75 Y115.10
G1 F1200 X139.17 Y118.53 E494.55601
G0 F9000 X139.17 Y119.09
G1 F1200 X135.75 Y115.67 E495.13700
G0 F9000 X135.75 Y116.23
G1 F1200 X139.17 Y119.66 E495.71790
G0 F9000 X139.17 Y120.22
G1 F1200 X135.75 Y116.80 E496.29880
G0 F9000 X135.75 Y117.37
G1 F1200 X139.17 Y120.79 E496.87979
G0 F9000 X139.17 Y121.36
G1 F1200 X135.75 Y117.93 E497.46069
G0 F9000 X135.75 Y118.50
G1 F1200 X139.17 Y121.92 E498.04159
G0 F9000 X139.17 Y122.49
G1 F1200 X135.75 Y119.06 E498.62249
G0 F9000 X135.75 Y119.63
G1 F1200 X139.17 Y123.05 E499.20340
G0 F9000 X139.17 Y123.62
G1 F1200 X135.75 Y120.19 E499.78430
G0 F9000 X135.75 Y120.76
G1 F1200 X139.17 Y124.18 E500.36520
G0 F9000 X139.17 Y124.75
G1 F1200 X135.75 Y121.33 E500.94610
G0 F9000 X135.75 Y121.89
G1 F1200 X139.17 Y125.31 E501.52701
G0 F9000 X139.17 Y125.88
G1 F1200 X135.75 Y122.46 E502.10791
G0 F9000 X135.75 Y123.02
G1 F1200 X139.17 Y126.45 E502.68881
G0 F9000 X139.17 Y127.01
G1 F1200 X135.75 Y123.59 E503.26971
G0 F9000 X135.75 Y124.16
G1 F1200 X139.17 Y127.58 E503.85062
G0 F9000 X139.17 Y128.14
