;FLAVOR:UltiGCode
;TIME:4837      
;MATERIAL:17912     
;MATERIAL2:0         

;Layer count: 100
;LAYER:0
M107
G0 F9000 X61.88 Y65.67 Z0.30
;TYPE:SKIRT
G1 F1800 X76.61 Y65.67 E2.20860
G1 X78.01 Y65.67 E2.41935
G1 X83.46 Y65.67 E3.23640
G1 X83.72 Y65.67 E3.27570
G1 X97.50 Y65.67 E5.34255
G1 X98.30 Y65.67 E5.46285
G1 X108.59 Y65.67 E7.00560
G1 X108.92 Y65.67 E7.05645
G1 X120.27 Y65.67 E8.75760
G1 X121.07 Y65.67 E8.87790
G1 X129.66 Y65.67 E10.16655
G1 X130.46 Y65.67 E10.28685
G1 X138.82 Y65.67 E11.54025
G1 X139.07 Y65.67 E11.57850
G1 X149.48 Y65.67 E13.13955
G1 X150.89 Y65.67 E13.35180
G1 X153.46 Y65.67 E13.73715
G1 X168.10 Y65.67 E15.93345
G1 X168.11 Y69.44 E16.49955
G1 X168.11 Y86.84 E19.11000
G1 X168.11 Y87.49 E19.20660
G1 X168.11 Y91.45 E19.80150
G1 X168.11 Y92.25 E19.92150
G1 X168.11 Y104.28 E21.72510
G1 X168.11 Y105.18 E21.85965
G1 X168.11 Y128.73 E25.39230
G1 X168.11 Y129.43 E25.49745
G1 X168.11 Y132.70 E25.98810
G1 X146.25 Y132.70 E29.26740
G1 X146.25 Y159.80 E33.33240
G1 X83.75 Y159.80 E42.70740
G1 X83.75 Y132.78 E46.76070
G1 X61.89 Y132.78 E50.03925
G1 X61.89 Y128.80 E50.63535
G1 X61.89 Y92.26 E56.11710
G1 X61.89 Y91.45 E56.23755
G1 X61.89 Y69.45 E59.53890
G1 X61.88 Y65.67 E60.10575
G10
G0 F9000 X65.89 Y69.67
;TYPE:WALL-INNER
G11
G1 F1800 X83.47 Y69.67 E62.74305
G1 X83.73 Y69.67 E62.78175
G1 X108.60 Y69.67 E66.51195
G1 X108.93 Y69.67 E66.56220
G1 X120.27 Y69.67 E68.26290
G1 X121.07 Y69.67 E68.38305
G1 X129.66 Y69.67 E69.67185
G1 X130.46 Y69.67 E69.79200
G1 X138.83 Y69.67 E71.04705
G1 X139.08 Y69.67 E71.08456
G1 X164.11 Y69.67 E74.83921
G1 X164.11 Y86.85 E77.41591
G1 X164.11 Y87.49 E77.51266
G1 X164.11 Y91.45 E78.10711
G1 X164.11 Y128.70 E83.69386
G1 X142.25 Y128.70 E86.97316
G1 X142.25 Y155.80 E91.03816
G1 X118.25 Y155.80 E94.63816
G1 X118.25 Y150.80 E95.38816
G1 X111.75 Y150.80 E96.36316
G1 X111.75 Y155.80 E97.11316
G1 X87.75 Y155.80 E100.71316
G1 X87.75 Y128.78 E104.76646
G1 X65.89 Y128.78 E108.04576
G1 X65.89 Y69.67 E116.91226
G0 F9000 X68.08 Y83.12
G1 F1800 X68.08 Y93.33 E118.44226
G1 X76.58 Y93.33 E119.71726
G1 X76.58 Y88.82 E120.39316
G1 X76.67 Y89.06 E120.43193
G1 X76.84 Y89.33 E120.47901
G1 X77.05 Y89.56 E120.52610
G1 X77.29 Y89.76 E120.57335
G1 X77.56 Y89.91 E120.62042
G1 X77.86 Y90.02 E120.66748
G1 X78.17 Y90.07 E120.71453
G1 X78.49 Y90.07 E120.76208
G1 X78.80 Y90.02 E120.80914
G1 X79.09 Y89.91 E120.85634
G1 X79.36 Y89.76 E120.90315
G1 X79.61 Y89.56 E120.95031
G1 X79.82 Y89.33 E120.99761
G1 X79.98 Y89.06 E121.04489
G1 X80.10 Y88.77 E121.09188
G1 X80.17 Y88.46 E121.13916
G1 X80.18 Y88.15 E121.18615
G1 X80.14 Y87.83 E121.23316
G1 X80.05 Y87.53 E121.28042
G1 X79.91 Y87.25 E121.32745
G1 X79.72 Y87.00 E121.37476
G1 X79.49 Y86.78 E121.42165
G1 X79.23 Y86.61 E121.46895
G1 X78.94 Y86.48 E121.51629
G1 X78.64 Y86.40 E121.56326
G1 X78.33 Y86.37 E121.61038
G1 X78.02 Y86.40 E121.65736
G1 X77.71 Y86.48 E121.70433
G1 X77.42 Y86.61 E121.75147
G1 X77.16 Y86.78 E121.79910
G1 X76.94 Y87.00 E121.84599
G1 X76.75 Y87.25 E121.89318
G1 X76.61 Y87.53 E121.94021
G1 X76.58 Y87.64 E121.95638
G1 X76.58 Y83.12 E122.63318
G1 X68.08 Y83.12 E123.90818
G0 F9000 X81.66 Y82.28
G1 F1800 X82.04 Y83.21 E124.05855
G1 X93.89 Y83.21 E125.83500
G1 X97.35 Y79.74 E126.57057
G1 X93.31 Y75.70 E127.42812
G1 X88.24 Y75.70 E128.18817
G1 X81.66 Y82.28 E129.58484
G0 F9000 X82.10 Y83.13
G0 X83.66 Y84.52
G1 F1800 X83.44 Y84.74 E129.63194
G1 X83.25 Y84.99 E129.67913
G1 X83.11 Y85.27 E129.72616
G1 X83.02 Y85.57 E129.77313
G1 X82.98 Y85.88 E129.82046
G1 X82.99 Y86.20 E129.86790
G1 X83.06 Y86.50 E129.91492
G1 X83.17 Y86.79 E129.96172
G1 X83.34 Y87.06 E130.00900
G1 X83.55 Y87.30 E130.05609
G1 X83.79 Y87.50 E130.10334
G1 X84.06 Y87.65 E130.15042
G1 X84.36 Y87.75 E130.19748
G1 X84.67 Y87.81 E130.24453
G1 X84.99 Y87.81 E130.29208
G1 X85.30 Y87.75 E130.33913
G1 X85.59 Y87.65 E130.38633
G1 X85.86 Y87.50 E130.43315
G1 X86.11 Y87.30 E130.48030
G1 X86.32 Y87.06 E130.52760
G1 X86.48 Y86.79 E130.57489
G1 X86.60 Y86.50 E130.62168
G1 X86.67 Y86.20 E130.66900
G1 X86.68 Y85.88 E130.71613
G1 X86.64 Y85.57 E130.76315
G1 X86.55 Y85.27 E130.81040
G1 X86.41 Y84.99 E130.85743
G1 X86.22 Y84.74 E130.90474
G1 X85.99 Y84.52 E130.95195
G1 X85.73 Y84.34 E130.99884
G1 X85.44 Y84.21 E131.04596
G1 X85.14 Y84.14 E131.09322
G1 X84.83 Y84.11 E131.14035
G1 X84.52 Y84.14 E131.18732
G1 X84.21 Y84.21 E131.23458
G1 X83.92 Y84.34 E131.28157
G1 X83.66 Y84.52 E131.32883
G0 F9000 X83.07 Y85.58
G0 X79.80 Y96.17
G1 F1800 X79.41 Y96.06 E131.38992
G1 X79.00 Y96.03 E131.45119
G1 X78.59 Y96.06 E131.51232
G1 X78.20 Y96.17 E131.57340
G1 X77.83 Y96.34 E131.63449
G1 X77.49 Y96.56 E131.69565
G1 X77.20 Y96.84 E131.75654
G1 X76.95 Y97.17 E131.81787
G1 X76.77 Y97.54 E131.87931
G1 X76.65 Y97.93 E131.94029
G1 X76.60 Y98.33 E132.00109
G1 X76.62 Y98.74 E132.06249
G1 X76.70 Y99.14 E132.12357
G1 X76.86 Y99.52 E132.18468
G1 X77.07 Y99.86 E132.24596
G1 X77.34 Y100.17 E132.30708
G1 X77.66 Y100.42 E132.36831
G1 X78.01 Y100.62 E132.42942
G1 X78.39 Y100.76 E132.49033
G1 X78.80 Y100.83 E132.55139
G1 X79.20 Y100.83 E132.61274
G1 X79.61 Y100.76 E132.67380
G1 X79.99 Y100.62 E132.73519
G1 X80.36 Y100.41 E132.79847
G1 X80.66 Y100.17 E132.85703
G1 X80.93 Y99.86 E132.91815
G1 X81.15 Y99.52 E132.97943
G1 X81.30 Y99.14 E133.04054
G1 X81.38 Y98.74 E133.10162
G1 X81.40 Y98.33 E133.16302
G1 X81.35 Y97.93 E133.22382
G1 X81.23 Y97.54 E133.28480
G1 X81.05 Y97.17 E133.34624
G1 X80.80 Y96.84 E133.40757
G1 X80.51 Y96.56 E133.46846
G1 X80.17 Y96.34 E133.52962
G1 X79.80 Y96.17 E133.59071
G0 F9000 X98.75 Y107.60
G1 F1800 X98.75 Y135.10 E137.71556
G1 X131.25 Y135.10 E142.59056
G1 X131.25 Y107.60 E146.71541
G1 X98.75 Y107.60 E151.59041
G0 F9000 X101.69 Y90.78
G1 F1800 X102.10 Y90.84 E151.65147
G1 X102.50 Y90.84 E151.71282
G1 X102.91 Y90.78 E151.77388
G1 X103.29 Y90.64 E151.83479
G1 X103.64 Y90.44 E151.89589
G1 X103.96 Y90.19 E151.95713
G1 X104.23 Y89.88 E152.01824
G1 X104.45 Y89.53 E152.07952
G1 X104.60 Y89.15 E152.14064
G1 X104.68 Y88.76 E152.20171
G1 X104.70 Y88.35 E152.26312
G1 X104.65 Y87.94 E152.32392
G1 X104.53 Y87.56 E152.38490
G1 X104.35 Y87.19 E152.44634
G1 X104.10 Y86.86 E152.50766
G1 X103.81 Y86.58 E152.56856
G1 X103.47 Y86.35 E152.62971
G1 X103.10 Y86.19 E152.69080
G1 X102.71 Y86.08 E152.75204
G1 X102.30 Y86.05 E152.81315
G1 X101.89 Y86.08 E152.87411
G1 X101.50 Y86.19 E152.93534
G1 X101.13 Y86.35 E152.99643
G1 X100.79 Y86.58 E153.05759
G1 X100.50 Y86.86 E153.11849
G1 X100.25 Y87.19 E153.17981
G1 X100.07 Y87.56 E153.24125
G1 X99.95 Y87.94 E153.30223
G1 X99.90 Y88.35 E153.36303
G1 X99.92 Y88.76 E153.42443
G1 X100.00 Y89.15 E153.48551
G1 X100.16 Y89.53 E153.54662
G1 X100.37 Y89.88 E153.60790
G1 X100.64 Y90.19 E153.66902
G1 X100.96 Y90.44 E153.73025
G1 X101.31 Y90.64 E153.79136
G1 X101.69 Y90.78 E153.85227
G0 F9000 X125.32 Y88.76
G1 F1800 X125.40 Y89.15 E153.91335
G1 X125.55 Y89.53 E153.97446
G1 X125.77 Y89.88 E154.03574
G1 X126.04 Y90.19 E154.09686
G1 X126.36 Y90.44 E154.15809
G1 X126.71 Y90.64 E154.21920
G1 X127.09 Y90.78 E154.28011
G1 X127.50 Y90.84 E154.34117
G1 X127.90 Y90.84 E154.40252
G1 X128.31 Y90.78 E154.46358
G1 X128.69 Y90.64 E154.52449
G1 X129.04 Y90.44 E154.58560
G1 X129.36 Y90.19 E154.64683
G1 X129.63 Y89.88 E154.70795
G1 X129.84 Y89.53 E154.76923
G1 X130.00 Y89.15 E154.83034
G1 X130.08 Y88.76 E154.89142
G1 X130.10 Y88.35 E154.95282
G1 X130.05 Y87.94 E155.01362
G1 X129.93 Y87.56 E155.07460
G1 X129.75 Y87.19 E155.13605
G1 X129.50 Y86.86 E155.19737
G1 X129.21 Y86.58 E155.25826
G1 X128.87 Y86.35 E155.31942
G1 X128.50 Y86.19 E155.38051
G1 X128.10 Y86.08 E155.44174
G1 X127.70 Y86.05 E155.50270
G1 X127.29 Y86.08 E155.56382
G1 X126.90 Y86.19 E155.62505
G1 X126.53 Y86.35 E155.68614
G1 X126.19 Y86.58 E155.74729
G1 X125.90 Y86.86 E155.80819
G1 X125.65 Y87.19 E155.86951
G1 X125.47 Y87.56 E155.93096
G1 X125.35 Y87.94 E155.99193
G1 X125.30 Y88.35 E156.05274
G1 X125.32 Y88.76 E156.11414
G0 F9000 X125.94 Y86.90
G0 X132.65 Y79.74
G1 F1800 X136.11 Y83.21 E156.84971
G1 X147.81 Y83.21 E158.60501
G1 X148.20 Y82.28 E158.75538
G1 X141.61 Y75.70 E160.15216
G1 X136.69 Y75.70 E160.89091
G1 X132.65 Y79.74 E161.74845
G0 F9000 X136.14 Y83.14
G0 X143.45 Y85.27
G1 F1800 X143.36 Y85.57 E161.79571
G1 X143.32 Y85.88 E161.84272
G1 X143.33 Y86.20 E161.88986
G1 X143.40 Y86.50 E161.93717
G1 X143.52 Y86.79 E161.98397
G1 X143.68 Y87.06 E162.03125
G1 X143.89 Y87.30 E162.07855
G1 X144.14 Y87.50 E162.12571
G1 X144.41 Y87.65 E162.17252
G1 X144.71 Y87.75 E162.21972
G1 X145.01 Y87.81 E162.26678
G1 X145.33 Y87.81 E162.31433
G1 X145.64 Y87.75 E162.36138
G1 X145.94 Y87.65 E162.40844
G1 X146.21 Y87.50 E162.45551
G1 X146.46 Y87.30 E162.50276
G1 X146.66 Y87.06 E162.54985
G1 X146.83 Y86.79 E162.59714
G1 X146.94 Y86.50 E162.64393
G1 X147.01 Y86.20 E162.69095
G1 X147.02 Y85.88 E162.73839
G1 X146.98 Y85.57 E162.78573
G1 X146.89 Y85.27 E162.83270
G1 X146.75 Y84.99 E162.87972
G1 X146.56 Y84.74 E162.92691
G1 X146.34 Y84.52 E162.97401
G1 X146.07 Y84.34 E163.02127
G1 X145.79 Y84.21 E163.06826
G1 X145.49 Y84.14 E163.11552
G1 X145.17 Y84.11 E163.16249
G1 X144.86 Y84.14 E163.20962
G1 X144.56 Y84.21 E163.25688
G1 X144.27 Y84.34 E163.30400
G1 X144.01 Y84.52 E163.35089
G1 X143.78 Y84.74 E163.39810
G1 X143.59 Y84.99 E163.44542
G1 X143.45 Y85.27 E163.49244
G0 F9000 X144.57 Y84.26
G0 X146.05 Y84.39
G0 X146.93 Y85.58
G0 X150.10 Y87.53
G1 F1800 X150.01 Y87.83 E163.53970
G1 X149.97 Y88.15 E163.58671
G1 X149.98 Y88.46 E163.63370
G1 X150.05 Y88.77 E163.68098
G1 X150.17 Y89.06 E163.72797
G1 X150.33 Y89.33 E163.77525
G1 X150.54 Y89.56 E163.82255
G1 X150.79 Y89.76 E163.86971
G1 X151.06 Y89.91 E163.91652
G1 X151.35 Y90.02 E163.96372
G1 X151.66 Y90.07 E164.01078
G1 X151.98 Y90.07 E164.05833
G1 X152.29 Y90.02 E164.10538
G1 X152.59 Y89.91 E164.15244
G1 X152.86 Y89.76 E164.19951
G1 X153.11 Y89.56 E164.24751
G1 X153.32 Y89.31 E164.29645
G1 X153.42 Y89.15 E164.32555
G1 X153.42 Y93.33 E164.95240
G1 X161.92 Y93.33 E166.22740
G1 X161.92 Y83.12 E167.75740
G1 X153.42 Y83.12 E169.03240
G1 X153.42 Y87.30 E169.65835
G1 X153.40 Y87.25 E169.66593
G1 X153.21 Y87.00 E169.71300
G1 X152.99 Y86.78 E169.75989
G1 X152.72 Y86.61 E169.80753
G1 X152.44 Y86.48 E169.85466
G1 X152.13 Y86.40 E169.90163
G1 X151.82 Y86.37 E169.94861
G1 X151.51 Y86.40 E169.99573
G1 X151.21 Y86.48 E170.04270
G1 X150.92 Y86.61 E170.09004
G1 X150.66 Y86.78 E170.13734
G1 X150.43 Y87.00 E170.18423
G1 X150.25 Y87.25 E170.23155
G1 X150.10 Y87.53 E170.27857
G0 F9000 X151.00 Y96.03
G1 F1800 X150.59 Y96.06 E170.33970
G1 X150.20 Y96.17 E170.40078
G1 X149.83 Y96.34 E170.46187
G1 X149.49 Y96.56 E170.52303
G1 X149.20 Y96.84 E170.58392
G1 X148.95 Y97.17 E170.64524
G1 X148.77 Y97.54 E170.70669
G1 X148.65 Y97.93 E170.76767
G1 X148.60 Y98.33 E170.82847
G1 X148.62 Y98.74 E170.88987
G1 X148.70 Y99.14 E170.95095
G1 X148.85 Y99.52 E171.01206
G1 X149.07 Y99.86 E171.07334
G1 X149.34 Y100.17 E171.13446
G1 X149.66 Y100.42 E171.19569
G1 X150.01 Y100.62 E171.25680
G1 X150.39 Y100.76 E171.31771
G1 X150.79 Y100.83 E171.37877
G1 X151.20 Y100.83 E171.44012
G1 X151.60 Y100.76 E171.50118
G1 X151.99 Y100.62 E171.56210
G1 X152.34 Y100.42 E171.62320
G1 X152.66 Y100.17 E171.68443
G1 X152.93 Y99.86 E171.74555
G1 X153.15 Y99.52 E171.80683
G1 X153.30 Y99.14 E171.86794
G1 X153.38 Y98.74 E171.92902
G1 X153.40 Y98.33 E171.99042
G1 X153.35 Y97.93 E172.05122
G1 X153.23 Y97.54 E172.11220
G1 X153.05 Y97.17 E172.17365
G1 X152.80 Y96.84 E172.23497
G1 X152.51 Y96.56 E172.29586
G1 X152.17 Y96.34 E172.35702
G1 X151.80 Y96.17 E172.41811
G1 X151.41 Y96.06 E172.47920
G1 X151.00 Y96.03 E172.54047
G10
G0 F9000 X151.00 Y121.43
G11
G1 F1800 X150.59 Y121.46 E172.60160
G1 X150.20 Y121.57 E172.66268
G1 X149.83 Y121.73 E172.72377
G1 X149.49 Y121.96 E172.78493
G1 X149.20 Y122.24 E172.84582
G1 X148.95 Y122.57 E172.90714
G1 X148.77 Y122.94 E172.96859
G1 X148.65 Y123.33 E173.02957
G1 X148.60 Y123.73 E173.09037
G1 X148.62 Y124.14 E173.15177
G1 X148.70 Y124.54 E173.21285
G1 X148.85 Y124.91 E173.27396
G1 X149.07 Y125.26 E173.33524
G1 X149.34 Y125.57 E173.39636
G1 X149.66 Y125.82 E173.45759
G1 X150.01 Y126.02 E173.51870
G1 X150.39 Y126.16 E173.57961
G1 X150.79 Y126.23 E173.64067
G1 X151.20 Y126.23 E173.70202
G1 X151.60 Y126.16 E173.76308
G1 X151.99 Y126.02 E173.82399
G1 X152.34 Y125.82 E173.88510
G1 X152.66 Y125.57 E173.94633
G1 X152.93 Y125.26 E174.00745
G1 X153.15 Y124.91 E174.06873
G1 X153.30 Y124.54 E174.12984
G1 X153.38 Y124.14 E174.19092
G1 X153.40 Y123.73 E174.25232
G1 X153.35 Y123.33 E174.31312
G1 X153.23 Y122.94 E174.37410
G1 X153.05 Y122.57 E174.43555
G1 X152.80 Y122.24 E174.49687
G1 X152.51 Y121.96 E174.55776
G1 X152.17 Y121.73 E174.61892
G1 X151.80 Y121.57 E174.68001
G1 X151.41 Y121.46 E174.74110
G1 X151.00 Y121.43 E174.80237
G0 F9000 X149.52 Y122.00
G0 X131.14 Y134.99
G0 X116.58 Y140.58
G1 F1800 X116.39 Y140.33 E174.84944
G1 X116.17 Y140.11 E174.89633
G1 X115.90 Y139.93 E174.94363
G1 X115.62 Y139.80 E174.99089
G1 X115.31 Y139.72 E175.03815
G1 X115.00 Y139.70 E175.08513
G1 X114.69 Y139.72 E175.13210
G1 X114.38 Y139.80 E175.17936
G1 X114.10 Y139.93 E175.22662
G1 X113.83 Y140.11 E175.27393
G1 X113.61 Y140.33 E175.32082
G1 X113.42 Y140.58 E175.36789
G1 X113.28 Y140.86 E175.41491
G1 X113.19 Y141.16 E175.46202
G1 X113.15 Y141.47 E175.50936
G1 X113.16 Y141.79 E175.55665
G1 X113.23 Y142.09 E175.60363
G1 X113.34 Y142.38 E175.65062
G1 X113.51 Y142.65 E175.69791
G1 X113.72 Y142.89 E175.74521
G1 X113.96 Y143.09 E175.79237
G1 X114.24 Y143.24 E175.83918
G1 X114.53 Y143.34 E175.88638
G1 X114.84 Y143.40 E175.93343
G1 X115.16 Y143.40 E175.98083
G1 X115.47 Y143.34 E176.02789
G1 X115.76 Y143.24 E176.07509
G1 X116.04 Y143.09 E176.12190
G1 X116.28 Y142.89 E176.16906
G1 X116.49 Y142.65 E176.21636
G1 X116.66 Y142.38 E176.26364
G1 X116.77 Y142.09 E176.31063
G1 X116.84 Y141.79 E176.35762
G1 X116.85 Y141.47 E176.40491
G1 X116.81 Y141.16 E176.45224
G1 X116.72 Y140.86 E176.49936
G1 X116.58 Y140.58 E176.54638
G10
G0 F9000 X115.31 Y145.72
G11
G1 F1800 X115.00 Y145.70 E176.59336
G1 X114.69 Y145.72 E176.64033
G1 X114.38 Y145.80 E176.68759
G1 X114.10 Y145.93 E176.73485
G1 X113.83 Y146.11 E176.78215
G1 X113.61 Y146.33 E176.82904
G1 X113.42 Y146.58 E176.87611
G1 X113.28 Y146.86 E176.92314
G1 X113.19 Y147.16 E176.97025
G1 X113.15 Y147.47 E177.01758
G1 X113.16 Y147.79 E177.06487
G1 X113.23 Y148.09 E177.11186
G1 X113.34 Y148.38 E177.15885
G1 X113.51 Y148.65 E177.20614
G1 X113.72 Y148.89 E177.25344
G1 X113.96 Y149.09 E177.30059
G1 X114.24 Y149.24 E177.34741
G1 X114.53 Y149.34 E177.39461
G1 X114.84 Y149.40 E177.44166
G1 X115.16 Y149.40 E177.48906
G1 X115.47 Y149.34 E177.53611
G1 X115.76 Y149.24 E177.58332
G1 X116.04 Y149.09 E177.63013
G1 X116.28 Y148.89 E177.67728
G1 X116.49 Y148.65 E177.72458
G1 X116.66 Y148.38 E177.77187
G1 X116.77 Y148.09 E177.81886
G1 X116.84 Y147.79 E177.86585
G1 X116.85 Y147.47 E177.91314
G1 X116.81 Y147.16 E177.96047
G1 X116.72 Y146.86 E178.00758
G1 X116.58 Y146.58 E178.05461
G1 X116.39 Y146.33 E178.10168
G1 X116.17 Y146.11 E178.14857
G1 X115.90 Y145.93 E178.19587
G1 X115.62 Y145.80 E178.24313
G1 X115.31 Y145.72 E178.29039
G0 F9000 X81.15 Y124.91
G1 F1800 X81.30 Y124.54 E178.35150
G1 X81.38 Y124.14 E178.41258
G1 X81.40 Y123.73 E178.47398
G1 X81.35 Y123.33 E178.53479
G1 X81.23 Y122.94 E178.59576
G1 X81.05 Y122.57 E178.65721
G1 X80.80 Y122.24 E178.71853
G1 X80.51 Y121.96 E178.77942
G1 X80.17 Y121.73 E178.84058
G1 X79.80 Y121.57 E178.90167
G1 X79.41 Y121.46 E178.96276
G1 X79.00 Y121.43 E179.02403
G1 X78.59 Y121.46 E179.08516
G1 X78.20 Y121.57 E179.14624
G1 X77.83 Y121.73 E179.20733
G1 X77.49 Y121.96 E179.26849
G1 X77.20 Y122.24 E179.32939
G1 X76.95 Y122.57 E179.39071
G1 X76.77 Y122.94 E179.45215
G1 X76.65 Y123.33 E179.51313
G1 X76.60 Y123.73 E179.57393
G1 X76.62 Y124.14 E179.63533
G1 X76.70 Y124.54 E179.69641
G1 X76.86 Y124.91 E179.75752
G1 X77.07 Y125.26 E179.81880
G1 X77.34 Y125.57 E179.87992
G1 X77.66 Y125.82 E179.94116
G1 X78.01 Y126.02 E180.00226
G1 X78.39 Y126.16 E180.06317
G1 X78.80 Y126.23 E180.12423
G1 X79.20 Y126.23 E180.18558
G1 X79.61 Y126.16 E180.24664
G1 X79.99 Y126.02 E180.30803
G1 X80.36 Y125.81 E180.37131
G1 X80.66 Y125.57 E180.42987
G1 X80.93 Y125.26 E180.49099
