;FLAVOR:UltiGCode
;TIME:1756      
;MATERIAL:4312      
;MATERIAL2:0         

;Layer count: 50
;LAYER:0
M107
G0 F9000 X78.74 Y39.73 Z0.30
;TYPE:SKIRT
G1 F1800 X79.36 Y38.66 E0.18572
G1 X80.09 Y37.66 E0.37206
G1 X80.93 Y36.74 E0.55870
G1 X81.86 Y35.93 E0.74422
G1 X82.88 Y35.22 E0.93014
G1 X83.72 Y34.76 E1.07438
G1 X83.95 Y34.63 E1.11275
G1 X85.12 Y34.15 E1.30344
G1 X86.31 Y33.82 E1.48838
G1 X87.53 Y33.61 E1.67402
G1 X88.52 Y33.55 E1.82201
G1 X88.78 Y33.54 E1.86168
G1 X89.80 Y33.59 E2.01476
G1 X90.05 Y33.61 E2.05248
G1 X91.24 Y33.81 E2.23284
G1 X92.43 Y34.14 E2.41835
G1 X93.58 Y34.60 E2.60441
G1 X94.67 Y35.19 E2.79038
G1 X95.69 Y35.90 E2.97637
G1 X96.63 Y36.71 E3.16216
G1 X97.47 Y37.62 E3.34866
G1 X98.21 Y38.62 E3.53466
G1 X98.83 Y39.69 E3.72057
G1 X99.33 Y40.82 E3.90647
G1 X99.70 Y42.00 E4.09220
G1 X99.94 Y43.22 E4.27847
G1 X100.02 Y44.15 E4.41801
G1 X100.05 Y44.39 E4.45491
G1 X100.02 Y45.55 E4.62777
G1 X100.00 Y45.80 E4.66534
G1 X99.85 Y46.93 E4.83751
G1 X99.55 Y48.13 E5.02301
G1 X99.12 Y49.29 E5.20825
G1 X98.56 Y50.40 E5.39467
G1 X97.88 Y51.44 E5.58085
G1 X97.09 Y52.40 E5.76673
G1 X96.21 Y53.26 E5.95257
G1 X95.23 Y54.03 E6.13894
G1 X94.18 Y54.68 E6.32476
G1 X93.06 Y55.21 E6.51075
G1 X91.88 Y55.62 E6.69708
G1 X90.67 Y55.89 E6.88285
G1 X89.51 Y56.02 E7.05917
G1 X88.80 Y56.05 E7.16573
G1 X88.11 Y56.03 E7.26792
G1 X86.96 Y55.90 E7.44162
G1 X85.76 Y55.63 E7.62708
G1 X84.58 Y55.23 E7.81283
G1 X83.46 Y54.70 E7.99885
G1 X82.40 Y54.06 E8.18500
G1 X81.42 Y53.30 E8.37123
G1 X80.53 Y52.44 E8.55697
G1 X79.74 Y51.48 E8.74277
G1 X79.06 Y50.44 E8.92886
G1 X78.50 Y49.34 E9.11549
G1 X78.06 Y48.18 E9.30090
G1 X77.75 Y46.98 E9.48706
G1 X77.58 Y45.75 E9.67306
G1 X77.55 Y44.82 E9.81187
G1 X77.54 Y44.56 E9.85155
G1 X77.64 Y43.27 E10.04600
G1 X77.88 Y42.05 E10.23121
G1 X78.25 Y40.87 E10.41696
G1 X78.74 Y39.73 E10.60303
G0 F9000 X79.19 Y39.96
G1 F1800 X79.78 Y38.93 E10.78049
G1 X80.48 Y37.98 E10.95858
G1 X81.28 Y37.10 E11.13673
G1 X82.17 Y36.32 E11.31416
G1 X83.14 Y35.64 E11.49180
G1 X83.97 Y35.19 E11.63316
G1 X84.17 Y35.08 E11.66681
G1 X85.29 Y34.63 E11.84842
G1 X86.42 Y34.30 E12.02529
G1 X87.59 Y34.11 E12.20269
G1 X88.55 Y34.05 E12.34678
G1 X88.78 Y34.04 E12.38209
G1 X89.77 Y34.09 E12.53051
G1 X89.99 Y34.10 E12.56402
G1 X91.13 Y34.29 E12.73647
G1 X92.27 Y34.61 E12.91389
G1 X93.36 Y35.06 E13.09155
G1 X94.41 Y35.62 E13.26933
G1 X95.38 Y36.29 E13.44699
G1 X96.28 Y37.07 E13.62460
G1 X97.08 Y37.94 E13.80271
G1 X97.79 Y38.89 E13.98047
G1 X98.38 Y39.92 E14.15804
G1 X98.86 Y41.00 E14.33575
G1 X99.22 Y42.13 E14.51332
G1 X99.45 Y43.29 E14.69118
G1 X99.52 Y44.20 E14.82848
G1 X99.55 Y44.42 E14.86066
G1 X99.52 Y45.52 E15.02662
G1 X99.51 Y45.75 E15.06014
G1 X99.36 Y46.84 E15.22518
G1 X99.07 Y47.98 E15.40249
G1 X98.66 Y49.09 E15.57962
G1 X98.12 Y50.15 E15.75772
G1 X97.48 Y51.14 E15.93554
G1 X96.73 Y52.06 E16.11310
G1 X95.88 Y52.89 E16.29088
G1 X94.94 Y53.62 E16.46881
G1 X93.94 Y54.24 E16.64636
G1 X92.87 Y54.75 E16.82416
G1 X91.75 Y55.14 E17.00210
G1 X90.59 Y55.40 E17.17957
G1 X89.47 Y55.52 E17.34880
G1 X88.80 Y55.55 E17.45010
G1 X88.15 Y55.53 E17.54689
G1 X87.05 Y55.41 E17.71350
G1 X85.89 Y55.15 E17.89066
G1 X84.77 Y54.77 E18.06831
G1 X83.70 Y54.26 E18.24606
G1 X82.69 Y53.65 E18.42380
G1 X81.75 Y52.92 E18.60170
G1 X80.90 Y52.09 E18.77927
G1 X80.15 Y51.18 E18.95687
G1 X79.50 Y50.19 E19.13472
G1 X78.96 Y49.13 E19.31283
G1 X78.54 Y48.03 E19.49022
G1 X78.25 Y46.88 E19.66798
G1 X78.08 Y45.71 E19.84566
G1 X78.05 Y44.81 E19.98027
G1 X78.04 Y44.56 E20.01709
G1 X78.14 Y43.34 E20.20207
G1 X78.36 Y42.18 E20.37899
G1 X78.72 Y41.05 E20.55658
G1 X79.19 Y39.96 E20.73432
G0 F9000 X79.64 Y40.19
G1 F1800 X80.20 Y39.21 E20.90364
G1 X80.86 Y38.29 E21.07325
G1 X81.63 Y37.46 E21.24322
G1 X82.48 Y36.72 E21.41225
G1 X83.41 Y36.07 E21.58170
G1 X84.20 Y35.64 E21.71667
G1 X84.39 Y35.53 E21.74920
G1 X85.45 Y35.10 E21.92173
G1 X86.53 Y34.79 E22.09029
G1 X87.64 Y34.60 E22.25948
G1 X88.58 Y34.55 E22.39982
G1 X88.78 Y34.54 E22.43078
G1 X89.74 Y34.59 E22.57455
G1 X89.94 Y34.60 E22.60385
G1 X91.02 Y34.78 E22.76838
G1 X92.10 Y35.09 E22.93754
G1 X93.15 Y35.51 E23.10693
G1 X94.15 Y36.05 E23.27652
G1 X95.08 Y36.69 E23.44599
G1 X95.93 Y37.43 E23.61518
G1 X96.70 Y38.26 E23.78501
G1 X97.37 Y39.17 E23.95461
G1 X97.94 Y40.14 E24.12385
G1 X98.39 Y41.18 E24.29322
G1 X98.73 Y42.25 E24.46259
G1 X98.95 Y43.36 E24.63203
G1 X99.02 Y44.24 E24.76390
G1 X99.05 Y44.44 E24.79488
G1 X99.02 Y45.50 E24.95363
G1 X99.01 Y45.70 E24.98309
G1 X98.86 Y46.74 E25.14117
G1 X98.59 Y47.83 E25.31041
G1 X98.20 Y48.89 E25.47937
G1 X97.69 Y49.90 E25.64909
G1 X97.07 Y50.85 E25.81855
G1 X96.36 Y51.72 E25.98791
G1 X95.55 Y52.51 E26.15741
G1 X94.66 Y53.21 E26.32700
G1 X93.70 Y53.80 E26.49639
G1 X92.68 Y54.28 E26.66580
G1 X91.61 Y54.65 E26.83544
G1 X90.51 Y54.90 E27.00476
G1 X89.43 Y55.02 E27.16675
G1 X88.80 Y55.05 E27.26265
G1 X88.19 Y55.03 E27.35419
G1 X87.13 Y54.91 E27.51371
G1 X86.03 Y54.67 E27.68272
G1 X84.96 Y54.30 E27.85211
G1 X83.94 Y53.82 E28.02147
G1 X82.97 Y53.23 E28.19114
G1 X82.08 Y52.54 E28.36069
G1 X81.27 Y51.76 E28.52999
G1 X80.55 Y50.89 E28.69927
G1 X79.93 Y49.94 E28.86881
G1 X79.41 Y48.93 E29.03866
G1 X79.02 Y47.88 E29.20769
G1 X78.74 Y46.78 E29.37726
G1 X78.58 Y45.66 E29.54676
G1 X78.55 Y44.76 E29.68227
G1 X78.54 Y44.57 E29.71097
G1 X78.64 Y43.40 E29.88631
G1 X78.85 Y42.30 E30.05514
G1 X79.19 Y41.22 E30.22457
G1 X79.64 Y40.19 E30.39392
G10
G0 F9000 X83.22 Y41.98
;TYPE:WALL-INNER
G11
G1 F1800 X83.56 Y41.39 E30.49619
G1 X83.96 Y40.83 E30.60012
G1 X84.43 Y40.32 E30.70395
G1 X84.95 Y39.87 E30.80676
G1 X85.51 Y39.48 E30.91005
G1 X86.13 Y39.14 E31.01569
G1 X86.76 Y38.89 E31.11703
G1 X87.42 Y38.70 E31.21982
G1 X88.09 Y38.59 E31.32221
G1 X88.80 Y38.55 E31.42919
G1 X89.48 Y38.58 E31.53165
G1 X90.15 Y38.69 E31.63337
G1 X90.81 Y38.88 E31.73618
G1 X91.44 Y39.13 E31.83855
G1 X92.06 Y39.46 E31.94251
G1 X92.63 Y39.86 E32.04732
G1 X93.14 Y40.30 E32.14824
G1 X93.61 Y40.81 E32.25216
G1 X94.02 Y41.37 E32.35588
G1 X94.36 Y41.96 E32.45917
G1 X94.64 Y42.59 E32.56266
G1 X94.85 Y43.24 E32.66442
G1 X94.98 Y43.93 E32.76962
G1 X95.04 Y44.62 E32.87469
G1 X95.03 Y45.31 E32.97718
G1 X94.93 Y45.98 E33.07832
G1 X94.76 Y46.65 E33.18183
G1 X94.53 Y47.29 E33.28486
G1 X94.22 Y47.90 E33.38810
G1 X93.84 Y48.48 E33.49153
G1 X93.40 Y49.02 E33.59588
G1 X92.92 Y49.49 E33.69729
G1 X92.37 Y49.92 E33.80168
G1 X91.78 Y50.28 E33.90479
G1 X91.17 Y50.58 E34.00725
G1 X90.51 Y50.80 E34.11090
G1 X89.83 Y50.95 E34.21516
G1 X89.15 Y51.03 E34.31842
G1 X88.79 Y51.04 E34.37275
G1 X88.45 Y51.03 E34.42301
G1 X87.78 Y50.96 E34.52383
G1 X87.11 Y50.81 E34.62708
G1 X86.45 Y50.59 E34.73139
G1 X85.84 Y50.30 E34.83372
G1 X85.25 Y49.94 E34.93647
G1 X84.70 Y49.51 E35.04082
G1 X84.21 Y49.03 E35.14425
G1 X83.77 Y48.51 E35.24694
G1 X83.39 Y47.92 E35.35124
G1 X83.08 Y47.32 E35.45301
G1 X82.84 Y46.67 E35.55762
G1 X82.67 Y46.01 E35.65924
G1 X82.57 Y45.33 E35.76314
G1 X82.55 Y44.61 E35.86984
G1 X82.61 Y43.95 E35.96948
G1 X82.74 Y43.27 E36.07324
G1 X82.94 Y42.62 E36.17639
G1 X83.22 Y41.98 E36.27977
G0 F9000 X86.88 Y43.61
G1 F1800 X86.71 Y43.95 E36.33679
G1 X86.59 Y44.32 E36.39411
G1 X86.55 Y44.70 E36.45171
G1 X86.56 Y45.08 E36.50876
G1 X86.64 Y45.45 E36.56613
G1 X86.78 Y45.81 E36.62367
G1 X86.99 Y46.13 E36.68095
G1 X87.24 Y46.42 E36.73802
G1 X87.53 Y46.66 E36.79540
G1 X87.87 Y46.85 E36.85274
G1 X88.23 Y46.97 E36.91000
G1 X88.59 Y47.04 E36.96541
G1 X88.83 Y47.04 E37.00069
G1 X89.01 Y47.03 E37.02742
G1 X89.36 Y46.97 E37.08192
G1 X89.72 Y46.85 E37.13918
G1 X90.06 Y46.66 E37.19653
G1 X90.36 Y46.42 E37.25390
G1 X90.61 Y46.13 E37.31098
G1 X90.81 Y45.81 E37.36825
G1 X90.95 Y45.45 E37.42579
G1 X91.03 Y45.08 E37.48316
G1 X91.05 Y44.70 E37.54021
G1 X91.00 Y44.32 E37.59782
G1 X90.89 Y43.95 E37.65513
G1 X90.72 Y43.61 E37.71215
G1 X90.49 Y43.30 E37.76963
G1 X90.21 Y43.04 E37.82713
G1 X89.89 Y42.83 E37.88429
G1 X89.55 Y42.67 E37.94162
G1 X89.18 Y42.57 E37.99911
G1 X88.80 Y42.54 E38.05616
G1 X88.42 Y42.57 E38.11336
G1 X88.05 Y42.67 E38.17084
G1 X87.70 Y42.83 E38.22817
G1 X87.38 Y43.04 E38.28533
G1 X87.11 Y43.30 E38.34284
G1 X86.88 Y43.61 E38.40032
G0 F9000 X87.31 Y43.88
;TYPE:WALL-OUTER
G1 F1800 X87.17 Y44.14 E38.44466
G1 X87.08 Y44.42 E38.48921
G1 X87.05 Y44.72 E38.53398
G1 X87.06 Y45.02 E38.57842
G1 X87.12 Y45.31 E38.62290
G1 X87.23 Y45.58 E38.66752
G1 X87.39 Y45.83 E38.71206
G1 X87.58 Y46.06 E38.75650
G1 X87.82 Y46.24 E38.80108
G1 X88.08 Y46.39 E38.84573
G1 X88.36 Y46.49 E38.89028
G1 X88.64 Y46.54 E38.93410
G1 X88.82 Y46.54 E38.96111
G1 X88.95 Y46.54 E38.98019
G1 X89.24 Y46.49 E39.02371
G1 X89.52 Y46.39 E39.06826
G1 X89.78 Y46.24 E39.11291
G1 X90.01 Y46.06 E39.15749
G1 X90.20 Y45.83 E39.20193
G1 X90.36 Y45.58 E39.24647
G1 X90.47 Y45.31 E39.29109
G1 X90.53 Y45.02 E39.33557
G1 X90.55 Y44.72 E39.38001
G1 X90.51 Y44.42 E39.42478
G1 X90.42 Y44.14 E39.46933
G1 X90.29 Y43.88 E39.51367
G1 X90.11 Y43.64 E39.55841
G1 X89.90 Y43.43 E39.60297
G1 X89.65 Y43.27 E39.64748
G1 X89.38 Y43.14 E39.69199
G1 X89.09 Y43.07 E39.73659
G1 X88.80 Y43.04 E39.78100
G1 X88.50 Y43.07 E39.82556
G1 X88.21 Y43.14 E39.87016
G1 X87.94 Y43.27 E39.91466
G1 X87.70 Y43.43 E39.95918
G1 X87.48 Y43.64 E40.00374
G1 X87.31 Y43.88 E40.04847
G0 F9000 X87.02 Y43.67
G0 X83.44 Y41.30
G0 X83.14 Y41.11
G1 F1800 X83.58 Y40.52 E40.15978
G1 X84.08 Y39.97 E40.27178
G1 X84.64 Y39.48 E40.38224
G1 X85.25 Y39.05 E40.49426
G1 X85.92 Y38.69 E40.60817
G1 X86.60 Y38.41 E40.71872
G1 X87.31 Y38.21 E40.82898
G1 X88.03 Y38.09 E40.93943
G1 X88.80 Y38.05 E41.05437
G1 X89.53 Y38.09 E41.16538
G1 X90.26 Y38.20 E41.27546
G1 X90.97 Y38.41 E41.38654
G1 X91.67 Y38.69 E41.49913
G1 X92.31 Y39.03 E41.60899
G1 X92.93 Y39.46 E41.72221
G1 X93.49 Y39.94 E41.83164
G1 X94.00 Y40.50 E41.94554
G1 X94.44 Y41.09 E42.05591
G1 X94.81 Y41.73 E42.16654
G1 X95.11 Y42.42 E42.27997
G1 X95.33 Y43.12 E42.39008
G1 X95.48 Y43.85 E42.50157
G1 X95.54 Y44.61 E42.61643
G1 X95.52 Y45.34 E42.72581
G1 X95.42 Y46.08 E42.83755
G1 X95.24 Y46.79 E42.94814
G1 X94.98 Y47.49 E43.05987
G1 X94.65 Y48.15 E43.17049
G1 X94.24 Y48.78 E43.28303
G1 X93.77 Y49.35 E43.39398
G1 X93.24 Y49.87 E43.50621
G1 X92.66 Y50.33 E43.61735
G1 X92.02 Y50.72 E43.72895
G1 X91.35 Y51.04 E43.84073
G1 X90.65 Y51.28 E43.95169
G1 X89.92 Y51.45 E44.06439
G1 X89.19 Y51.53 E44.17460
G1 X88.79 Y51.54 E44.23433
G1 X88.42 Y51.53 E44.28955
G1 X87.70 Y51.45 E44.39761
G1 X86.98 Y51.29 E44.50900
G1 X86.26 Y51.05 E44.62247
G1 X85.60 Y50.74 E44.73292
G1 X84.97 Y50.35 E44.84334
G1 X84.38 Y49.89 E44.95580
G1 X83.84 Y49.37 E45.06792
G1 X83.37 Y48.80 E45.17935
G1 X82.96 Y48.18 E45.29039
G1 X82.62 Y47.52 E45.40215
G1 X82.36 Y46.82 E45.51385
G1 X82.18 Y46.11 E45.62441
G1 X82.07 Y45.36 E45.73697
G1 X82.05 Y44.60 E45.85086
G1 X82.11 Y43.88 E45.95997
G1 X82.25 Y43.16 E46.07047
G1 X82.47 Y42.44 E46.18320
G1 X82.77 Y41.76 E46.29411
G1 X83.14 Y41.11 E46.40598
G0 F9000 X83.65 Y41.58
;TYPE:FILL
G1 F1800 X86.41 Y44.34 E46.99231
G0 F9000 X86.58 Y43.80
G1 F1800 X83.94 Y41.16 E47.55361
G0 F9000 X84.26 Y40.77
G1 F1800 X86.85 Y43.36 E48.10304
G0 F9000 X87.18 Y42.99
G1 F1800 X84.60 Y40.41 E48.65066
G0 F9000 X84.98 Y40.08
G1 F1800 X87.59 Y42.69 E49.20432
G0 F9000 X88.08 Y42.48
G1 F1800 X85.39 Y39.78 E49.77676
G0 F9000 X85.82 Y39.51
G1 F1800 X88.69 Y42.37 E50.38505
G0 F9000 X89.50 Y42.48
G1 F1800 X86.29 Y39.27 E51.06578
G0 F9000 X86.79 Y39.06
G1 F1800 X94.52 Y46.79 E52.70577
G0 F9000 X94.32 Y47.30
G1 F1800 X91.11 Y44.09 E53.38767
G0 F9000 X91.21 Y44.90
G1 F1800 X94.09 Y47.77 E53.99712
G0 F9000 X93.81 Y48.20
G1 F1800 X91.12 Y45.51 E54.56893
G0 F9000 X90.90 Y45.99
G1 F1800 X93.51 Y48.61 E55.12344
G0 F9000 X93.18 Y48.99
G1 F1800 X90.60 Y46.41 E55.67106
G0 F9000 X90.23 Y46.74
G1 F1800 X92.82 Y49.34 E56.22069
G0 F9000 X92.43 Y49.65
G1 F1800 X89.79 Y47.01 E56.78051
G0 F9000 X89.24 Y47.17
G1 F1800 X92.01 Y49.94 E57.36695
G0 F9000 X91.56 Y50.19
G1 F1800 X88.58 Y47.21 E57.99974
G0 F9000 X87.50 Y46.84
G1 F1800 X91.08 Y50.42 E58.75864
G0 F9000 X90.55 Y50.60
G1 F1800 X82.99 Y43.04 E60.36278
G0 F9000 X83.17 Y42.51
G1 F1800 X86.76 Y46.10 E61.12412
G0 F9000 X86.38 Y45.02
G1 F1800 X83.39 Y42.03 E61.75872
G0 F9000 X82.85 Y43.60
G1 F1800 X89.98 Y50.74 E63.27217
G0 F9000 X89.37 Y50.83
G1 F1800 X82.76 Y44.22 E64.67479
G0 F9000 X82.73 Y44.90
G1 F1800 X88.69 Y50.87 E65.93973
G0 F9000 X87.92 Y50.80
G1 F1800 X82.80 Y45.67 E67.02712
G0 F9000 X82.99 Y46.58
G1 F1800 X87.00 Y50.59 E67.87798
G0 F9000 X85.74 Y50.03
G1 F1800 X83.53 Y47.82 E68.34711
G0 F9000 X87.34 Y38.90
G1 F1800 X94.68 Y46.25 E69.90501
G0 F9000 X94.80 Y45.66
G1 F1800 X87.93 Y38.79 E71.36151
G0 F9000 X88.58 Y38.73
G1 F1800 X94.86 Y45.01 E72.69221
G0 F9000 X94.84 Y44.28
G1 F1800 X89.31 Y38.75 E73.86552
G0 F9000 X90.14 Y38.87
G1 F1800 X94.71 Y43.45 E74.83560
G0 F9000 X94.36 Y42.39
G1 F1800 X91.19 Y39.22 E75.50721
;LAYER:1
M106 S255
G0 F9000 X91.44 Y39.13 Z0.50
;TYPE:WALL-INNER
G1 F2220 X92.04 Y39.45 E75.57570
G1 X92.62 Y39.85 E75.64538
G1 X93.13 Y40.29 E75.71324
G1 X93.62 Y40.82 E75.78477
G1 X94.01 Y41.35 E75.85138
G1 X94.36 Y41.95 E75.92048
G1 X94.64 Y42.57 E75.98853
G1 X94.85 Y43.24 E76.05810
G1 X94.98 Y43.91 E76.12655
G1 X95.04 Y44.62 E76.19861
G1 X95.02 Y45.31 E76.26714
G1 X94.94 Y45.96 E76.33265
G1 X94.76 Y46.65 E76.40429
G1 X94.52 Y47.31 E76.47432
G1 X94.23 Y47.88 E76.53863
G1 X93.83 Y48.50 E76.61166
G1 X93.41 Y49.01 E76.67773
G1 X92.92 Y49.48 E76.74576
G1 X92.38 Y49.91 E76.81541
G1 X91.80 Y50.27 E76.88318
G1 X91.17 Y50.57 E76.95287
G1 X90.52 Y50.80 E77.02149
G1 X89.85 Y50.95 E77.09024
G1 X89.17 Y51.03 E77.15949
G1 X88.78 Y51.04 E77.19822
G1 X88.45 Y51.03 E77.23073
G1 X87.80 Y50.96 E77.29652
G1 X87.13 Y50.81 E77.36494
G1 X86.47 Y50.59 E77.43511
G1 X85.84 Y50.30 E77.50374
G1 X85.27 Y49.95 E77.57097
G1 X84.71 Y49.52 E77.64134
G1 X84.22 Y49.04 E77.71022
G1 X83.78 Y48.52 E77.77825
G1 X83.38 Y47.91 E77.85122
G1 X83.09 Y47.33 E77.91598
G1 X82.83 Y46.66 E77.98795
G1 X82.66 Y45.99 E78.05726
G1 X82.57 Y45.34 E78.12247
G1 X82.55 Y44.61 E78.19531
G1 X82.60 Y43.97 E78.25963
G1 X82.73 Y43.28 E78.32969
G1 X82.94 Y42.63 E78.39798
G1 X83.21 Y42.00 E78.46700
G1 X83.55 Y41.39 E78.53651
G1 X83.95 Y40.85 E78.60393
G1 X84.44 Y40.31 E78.67670
G1 X84.94 Y39.88 E78.74247
G1 X85.50 Y39.49 E78.81083
G1 X86.10 Y39.16 E78.87979
G1 X86.74 Y38.89 E78.94898
G1 X87.41 Y38.70 E79.01795
G1 X88.08 Y38.59 E79.08593
G1 X88.80 Y38.55 E79.15876
G1 X89.48 Y38.58 E79.22675
G1 X90.14 Y38.69 E79.29347
G1 X90.80 Y38.87 E79.36145
G1 X91.44 Y39.13 E79.43073
G0 F9000 X89.89 Y42.83
G1 F2220 X89.55 Y42.67 E79.46895
G1 X89.18 Y42.57 E79.50727
G1 X88.80 Y42.54 E79.54531
G1 X88.42 Y42.57 E79.58344
G1 X88.05 Y42.67 E79.62176
G1 X87.70 Y42.83 E79.65998
G1 X87.38 Y43.04 E79.69809
G1 X87.11 Y43.30 E79.73643
G1 X86.88 Y43.61 E79.77475
G1 X86.71 Y43.95 E79.81276
G1 X86.59 Y44.32 E79.85097
G1 X86.55 Y44.70 E79.88937
G1 X86.56 Y45.08 E79.92740
G1 X86.64 Y45.45 E79.96565
G1 X86.78 Y45.81 E80.00401
G1 X86.99 Y46.13 E80.04220
G1 X87.24 Y46.42 E80.08025
G1 X87.53 Y46.66 E80.11850
G1 X87.87 Y46.85 E80.15673
G1 X88.23 Y46.97 E80.19490
G1 X88.60 Y47.04 E80.23225
G1 X88.86 Y47.04 E80.25836
G1 X89.01 Y47.03 E80.27327
G1 X89.36 Y46.97 E80.30951
G1 X89.72 Y46.85 E80.34768
G1 X90.06 Y46.66 E80.38591
G1 X90.36 Y46.42 E80.42416
G1 X90.61 Y46.13 E80.46221
G1 X90.81 Y45.81 E80.50039
G1 X90.95 Y45.45 E80.53876
G1 X91.03 Y45.08 E80.57700
G1 X91.05 Y44.70 E80.61504
G1 X91.00 Y44.32 E80.65344
G1 X90.89 Y43.95 E80.69165
G1 X90.72 Y43.61 E80.72966
G1 X90.49 Y43.30 E80.76798
G1 X90.21 Y43.04 E80.80632
G1 X89.89 Y42.83 E80.84442
G0 F9000 X89.65 Y43.27
;TYPE:WALL-OUTER
G1 F2220 X89.38 Y43.14 E80.87409
G1 X89.09 Y43.07 E80.90383
G1 X88.80 Y43.04 E80.93344
G1 X88.50 Y43.07 E80.96314
G1 X88.21 Y43.14 E80.99288
G1 X87.94 Y43.27 E81.02255
G1 X87.70 Y43.43 E81.05222
G1 X87.48 Y43.64 E81.08193
G1 X87.31 Y43.88 E81.11175
G1 X87.17 Y44.14 E81.14131
G1 X87.08 Y44.42 E81.17101
G1 X87.05 Y44.72 E81.20086
G1 X87.06 Y45.02 E81.23049
G1 X87.12 Y45.31 E81.26014
G1 X87.23 Y45.58 E81.28989
G1 X87.39 Y45.83 E81.31958
G1 X87.58 Y46.06 E81.34920
G1 X87.82 Y46.24 E81.37892
G1 X88.08 Y46.39 E81.40869
G1 X88.36 Y46.49 E81.43839
G1 X88.64 Y46.54 E81.46772
G1 X88.85 Y46.54 E81.48833
G1 X88.95 Y46.54 E81.49844
