;FLAVOR:UltiGCode
;TIME:800       
;MATERIAL:2906      
;MATERIAL2:0         

;Layer count: 50
;LAYER:0
M107
G0 F9000 X75.29 Y85.80 Z0.30
;TYPE:SKIRT
G1 F1800 X112.79 Y85.80 E5.62500
G1 X112.79 Y119.30 E10.65000
G1 X75.29 Y119.30 E16.27500
G1 X75.29 Y85.80 E21.30000
G0 F9000 X75.79 Y86.30
G1 F1800 X112.29 Y86.30 E26.77500
G1 X112.29 Y118.80 E31.65000
G1 X75.79 Y118.80 E37.12500
G1 X75.79 Y86.30 E42.00000
G10
G0 F9000 X79.79 Y90.30
;TYPE:WALL-INNER
G11
G1 F1800 X108.29 Y90.30 E46.27500
G1 X108.29 Y114.80 E49.95000
G1 X79.79 Y114.80 E54.22500
G1 X79.79 Y90.30 E57.90000
G0 F9000 X79.29 Y89.80
;TYPE:WALL-OUTER
G1 F1800 X108.79 Y89.80 E62.32500
G1 X108.79 Y115.30 E66.15000
G1 X79.29 Y115.30 E70.57500
G1 X79.29 Y89.80 E74.40000
G0 F9000 X80.22 Y90.47
;TYPE:FILL
G1 F1800 X104.37 Y114.62 E79.52288
G0 F9000 X103.66 Y114.62
G1 F1800 X79.97 Y90.93 E84.54956
G0 F9000 X79.97 Y91.64
G1 F1800 X102.96 Y114.62 E89.42627
G0 F9000 X102.25 Y114.62
G1 F1800 X79.97 Y92.34 E94.15299
G0 F9000 X79.97 Y93.05
G1 F1800 X101.54 Y114.62 E98.72974
G0 F9000 X100.84 Y114.62
G1 F1800 X79.97 Y93.76 E103.15651
G0 F9000 X79.97 Y94.46
G1 F1800 X100.13 Y114.62 E107.43331
G0 F9000 X99.42 Y114.62
G1 F1800 X79.97 Y95.17 E111.56012
G0 F9000 X79.97 Y95.88
G1 F1800 X98.71 Y114.62 E115.53675
G0 F9000 X98.01 Y114.62
G1 F1800 X79.97 Y96.58 E119.36340
G0 F9000 X79.97 Y97.29
G1 F1800 X97.30 Y114.62 E123.04007
G0 F9000 X96.59 Y114.62
G1 F1800 X79.97 Y98.00 E126.56677
G0 F9000 X79.97 Y98.71
G1 F1800 X95.89 Y114.62 E129.94349
G0 F9000 X95.18 Y114.62
G1 F1800 X79.97 Y99.41 E133.17023
G0 F9000 X79.97 Y100.12
G1 F1800 X94.47 Y114.62 E136.24699
G0 F9000 X93.77 Y114.62
G1 F1800 X79.97 Y100.83 E139.17377
G0 F9000 X79.97 Y101.53
G1 F1800 X93.06 Y114.62 E141.95058
G0 F9000 X92.35 Y114.62
G1 F1800 X79.97 Y102.24 E144.57731
G0 F9000 X79.97 Y102.95
G1 F1800 X91.64 Y114.62 E147.05395
G0 F9000 X90.94 Y114.62
G1 F1800 X79.97 Y103.66 E149.38061
G0 F9000 X79.97 Y104.36
G1 F1800 X90.23 Y114.62 E151.55730
G0 F9000 X89.52 Y114.62
G1 F1800 X79.97 Y105.07 E153.58401
G0 F9000 X79.97 Y105.78
G1 F1800 X88.81 Y114.62 E155.46074
G0 F9000 X88.11 Y114.62
G1 F1800 X79.97 Y106.48 E157.18750
G0 F9000 X79.97 Y107.19
G1 F1800 X87.40 Y114.62 E158.76427
G0 F9000 X86.69 Y114.62
G1 F1800 X79.97 Y107.90 E160.19107
G0 F9000 X79.97 Y108.61
G1 F1800 X85.99 Y114.62 E161.46790
G0 F9000 X85.28 Y114.62
G1 F1800 X79.97 Y109.31 E162.59453
G0 F9000 X79.97 Y110.02
G1 F1800 X84.57 Y114.62 E163.57119
G0 F9000 X83.86 Y114.62
G1 F1800 X79.97 Y110.73 E164.39786
G0 F9000 X79.97 Y111.43
G1 F1800 X83.16 Y114.62 E165.07457
G0 F9000 X82.45 Y114.62
G1 F1800 X79.97 Y112.14 E165.60129
G0 F9000 X79.97 Y112.85
G1 F1800 X81.74 Y114.62 E165.97804
G0 F9000 X81.04 Y114.62
G1 F1800 X79.97 Y113.56 E166.20480
G0 F9000 X79.97 Y114.26
G1 F1800 X80.33 Y114.62 E166.28160
G0 F9000 X80.93 Y90.47
G1 F1800 X105.08 Y114.62 E171.40437
G0 F9000 X105.79 Y114.62
G1 F1800 X81.64 Y90.47 E176.52726
G0 F9000 X82.34 Y90.47
G1 F1800 X106.49 Y114.62 E181.65014
G0 F9000 X107.20 Y114.62
G1 F1800 X83.05 Y90.47 E186.77302
G0 F9000 X83.76 Y90.47
G1 F1800 X107.91 Y114.62 E191.89590
G0 F9000 X108.12 Y114.13
G1 F1800 X84.46 Y90.47 E196.91357
G0 F9000 X85.17 Y90.47
G1 F1800 X108.12 Y113.42 E201.78126
G0 F9000 X108.12 Y112.71
G1 F1800 X85.88 Y90.47 E206.49897
G0 F9000 X86.58 Y90.47
G1 F1800 X108.12 Y112.01 E211.06670
G0 F9000 X108.12 Y111.30
G1 F1800 X87.29 Y90.47 E215.48435
G0 F9000 X88.00 Y90.47
G1 F1800 X108.12 Y110.59 E219.75192
G0 F9000 X108.12 Y109.89
G1 F1800 X88.71 Y90.47 E223.86950
G0 F9000 X89.41 Y90.47
G1 F1800 X108.12 Y109.18 E227.83712
G0 F9000 X108.12 Y108.47
G1 F1800 X90.12 Y90.47 E231.65475
G0 F9000 X90.83 Y90.47
G1 F1800 X108.12 Y107.76 E235.32241
G0 F9000 X108.12 Y107.06
G1 F1800 X91.53 Y90.47 E238.84009
G0 F9000 X92.24 Y90.47
G1 F1800 X108.12 Y106.35 E242.20779
G0 F9000 X108.12 Y105.64
G1 F1800 X92.95 Y90.47 E245.42551
G0 F9000 X93.66 Y90.47
G1 F1800 X108.12 Y104.94 E248.49315
G0 F9000 X108.12 Y104.23
G1 F1800 X94.36 Y90.47 E251.41071
G0 F9000 X95.07 Y90.47
G1 F1800 X108.12 Y103.52 E254.17829
G0 F9000 X108.12 Y102.81
G1 F1800 X95.78 Y90.47 E256.79590
G0 F9000 X96.48 Y90.47
G1 F1800 X108.12 Y102.11 E259.26352
G0 F9000 X108.12 Y101.40
G1 F1800 X97.19 Y90.47 E261.58117
G0 F9000 X97.90 Y90.47
G1 F1800 X108.12 Y100.69 E263.74884
G0 F9000 X108.12 Y99.99
G1 F1800 X98.61 Y90.47 E265.76654
G0 F9000 X99.31 Y90.47
G1 F1800 X108.12 Y99.28 E267.63425
G0 F9000 X108.12 Y98.57
G1 F1800 X100.02 Y90.47 E269.35199
G0 F9000 X100.73 Y90.47
G1 F1800 X108.12 Y97.86 E270.91954
G0 F9000 X108.12 Y97.16
G1 F1800 X101.44 Y90.47 E272.33711
G0 F9000 X102.14 Y90.47
G1 F1800 X108.12 Y96.45 E273.60471
G0 F9000 X108.12 Y95.74
G1 F1800 X102.85 Y90.47 E274.72233
G0 F9000 X103.56 Y90.47
G1 F1800 X108.12 Y95.04 E275.68997
G0 F9000 X108.12 Y94.33
G1 F1800 X104.26 Y90.47 E276.50763
G0 F9000 X104.97 Y90.47
G1 F1800 X108.12 Y93.62 E277.17531
G0 F9000 X108.12 Y92.92
G1 F1800 X105.68 Y90.47 E277.69302
G0 F9000 X106.38 Y90.47
G1 F1800 X108.12 Y92.21 E278.06075
G0 F9000 X108.12 Y91.50
G1 F1800 X107.09 Y90.47 E278.27840
G0 F9000 X107.80 Y90.47
G1 F1800 X108.12 Y90.79 E278.34597
;LAYER:1
M106 S255
G0 F9000 X108.29 Y90.30 Z0.50
;TYPE:WALL-INNER
G1 F2220 X108.29 Y114.80 E280.79597
G1 X79.79 Y114.80 E283.64597
G1 X79.79 Y90.30 E286.09597
G1 X108.29 Y90.30 E288.94597
G0 F9000 X108.79 Y89.80
;TYPE:WALL-OUTER
G1 F2220 X108.79 Y115.30 E291.49597
G1 X79.29 Y115.30 E294.44597
G1 X79.29 Y89.80 E296.99597
G1 X108.79 Y89.80 E299.94597
G0 F9000 X107.87 Y90.47
;TYPE:FILL
G1 F2220 X83.72 Y114.62 E303.36136
G0 F9000 X84.42 Y114.62
G1 F2220 X108.12 Y90.93 E306.71185
G0 F9000 X108.12 Y91.64
G1 F2220 X85.13 Y114.62 E309.96235
G0 F9000 X85.84 Y114.62
G1 F2220 X108.12 Y92.35 E313.11286
G0 F9000 X108.12 Y93.05
G1 F2220 X86.55 Y114.62 E316.16332
G0 F9000 X87.25 Y114.62
G1 F2220 X108.12 Y93.76 E319.11379
G0 F9000 X108.12 Y94.47
G1 F2220 X87.96 Y114.62 E321.96428
G0 F9000 X88.67 Y114.62
G1 F2220 X108.12 Y95.17 E324.71478
G0 F9000 X108.12 Y95.88
G1 F2220 X89.38 Y114.62 E327.36530
G0 F9000 X90.08 Y114.62
G1 F2220 X108.12 Y96.59 E329.91577
G0 F9000 X108.12 Y97.30
G1 F2220 X90.79 Y114.62 E332.36625
G0 F9000 X91.50 Y114.62
G1 F2220 X108.12 Y98.00 E334.71674
G0 F9000 X108.12 Y98.71
G1 F2220 X92.20 Y114.62 E336.96725
G0 F9000 X92.91 Y114.62
G1 F2220 X108.12 Y99.42 E339.11770
G0 F9000 X108.12 Y100.12
G1 F2220 X93.62 Y114.62 E341.16817
G0 F9000 X94.33 Y114.62
G1 F2220 X108.12 Y100.83 E343.11865
G0 F9000 X108.12 Y101.54
G1 F2220 X95.03 Y114.62 E344.96915
G0 F9000 X95.74 Y114.62
G1 F2220 X108.12 Y102.25 E346.71966
G0 F9000 X108.12 Y102.95
G1 F2220 X96.45 Y114.62 E348.37012
G0 F9000 X97.15 Y114.62
G1 F2220 X108.12 Y103.66 E349.92060
G0 F9000 X108.12 Y104.37
G1 F2220 X97.86 Y114.62 E351.37108
G0 F9000 X98.57 Y114.62
G1 F2220 X108.12 Y105.08 E352.72159
G0 F9000 X108.12 Y105.78
G1 F2220 X99.27 Y114.62 E353.97211
G0 F9000 X99.98 Y114.62
G1 F2220 X108.12 Y106.49 E355.12257
G0 F9000 X108.12 Y107.20
G1 F2220 X100.69 Y114.62 E356.17305
G0 F9000 X101.40 Y114.62
G1 F2220 X108.12 Y107.90 E357.12354
G0 F9000 X108.12 Y108.61
G1 F2220 X102.10 Y114.62 E357.97405
G0 F9000 X102.81 Y114.62
G1 F2220 X108.12 Y109.32 E358.72450
G0 F9000 X108.12 Y110.03
G1 F2220 X103.52 Y114.62 E359.37497
G0 F9000 X104.22 Y114.62
G1 F2220 X108.12 Y110.73 E359.92545
G0 F9000 X108.12 Y111.44
G1 F2220 X104.93 Y114.62 E360.37595
G0 F9000 X105.64 Y114.62
G1 F2220 X108.12 Y112.15 E360.72646
G0 F9000 X108.12 Y112.85
G1 F2220 X106.35 Y114.62 E360.97692
G0 F9000 X107.05 Y114.62
G1 F2220 X108.12 Y113.56 E361.12739
G0 F9000 X108.12 Y114.27
G1 F2220 X107.76 Y114.62 E361.17788
G0 F9000 X107.16 Y90.47
G1 F2220 X83.01 Y114.62 E364.59327
G0 F9000 X82.30 Y114.62
G1 F2220 X106.45 Y90.47 E368.00860
G0 F9000 X105.75 Y90.47
G1 F2220 X81.60 Y114.62 E371.42393
G0 F9000 X80.89 Y114.62
G1 F2220 X105.04 Y90.47 E374.83925
G0 F9000 X104.33 Y90.47
G1 F2220 X80.18 Y114.62 E378.25458
G0 F9000 X79.97 Y114.13
G1 F2220 X103.63 Y90.47 E381.60032
G0 F9000 X102.92 Y90.47
G1 F2220 X79.97 Y113.42 E384.84608
G0 F9000 X79.97 Y112.72
G1 F2220 X102.21 Y90.47 E387.99186
G0 F9000 X101.50 Y90.47
G1 F2220 X79.97 Y112.01 E391.03765
G0 F9000 X79.97 Y111.30
G1 F2220 X100.80 Y90.47 E393.98346
G0 F9000 X100.09 Y90.47
G1 F2220 X79.97 Y110.60 E396.82921
G0 F9000 X79.97 Y109.89
G1 F2220 X99.38 Y90.47 E399.57498
G0 F9000 X98.68 Y90.47
G1 F2220 X79.97 Y109.18 E402.22069
G0 F9000 X79.97 Y108.47
G1 F2220 X97.97 Y90.47 E404.76641
G0 F9000 X97.26 Y90.47
G1 F2220 X79.97 Y107.77 E407.21215
G0 F9000 X79.97 Y107.06
G1 F2220 X96.56 Y90.47 E409.55791
G0 F9000 X95.85 Y90.47
G1 F2220 X79.97 Y106.35 E411.80368
G0 F9000 X79.97 Y105.65
G1 F2220 X95.14 Y90.47 E413.94947
G0 F9000 X94.43 Y90.47
G1 F2220 X79.97 Y104.94 E415.99527
G0 F9000 X79.97 Y104.23
G1 F2220 X93.73 Y90.47 E417.94109
G0 F9000 X93.02 Y90.47
G1 F2220 X79.97 Y103.53 E419.78685
G0 F9000 X79.97 Y102.82
G1 F2220 X92.31 Y90.47 E421.53255
G0 F9000 X91.61 Y90.47
G1 F2220 X79.97 Y102.11 E423.17827
G0 F9000 X79.97 Y101.40
G1 F2220 X90.90 Y90.47 E424.72401
G0 F9000 X90.19 Y90.47
G1 F2220 X79.97 Y100.70 E426.16976
G0 F9000 X79.97 Y99.99
G1 F2220 X89.48 Y90.47 E427.51552
G0 F9000 X88.78 Y90.47
G1 F2220 X79.97 Y99.28 E428.76130
G0 F9000 X79.97 Y98.58
G1 F2220 X88.07 Y90.47 E429.90710
G0 F9000 X87.36 Y90.47
G1 F2220 X79.97 Y97.87 E430.95291
G0 F9000 X79.97 Y97.16
G1 F2220 X86.66 Y90.47 E431.89867
G0 F9000 X85.95 Y90.47
G1 F2220 X79.97 Y96.45 E432.74444
G0 F9000 X79.97 Y95.75
G1 F2220 X85.24 Y90.47 E433.49015
G0 F9000 X84.53 Y90.47
G1 F2220 X79.97 Y95.04 E434.13588
G0 F9000 X79.97 Y94.33
G1 F2220 X83.83 Y90.47 E434.68163
G0 F9000 X83.12 Y90.47
G1 F2220 X79.97 Y93.63 E435.12739
G0 F9000 X79.97 Y92.92
G1 F2220 X82.41 Y90.47 E435.47316
G0 F9000 X81.71 Y90.47
G1 F2220 X79.97 Y92.21 E435.71895
G0 F9000 X79.97 Y91.50
G1 F2220 X81.00 Y90.47 E435.86476
G0 F9000 X80.29 Y90.47
G1 F2220 X79.97 Y90.80 E435.91051
;LAYER:2
G0 F9000 X79.79 Y90.30 Z0.70
;TYPE:WALL-INNER
G1 F2700 X108.29 Y90.30 E438.76051
G1 X108.29 Y114.80 E441.21051
G1 X79.79 Y114.80 E444.06051
G1 X79.79 Y90.30 E446.51051
G0 F9000 X79.29 Y89.80
;TYPE:WALL-OUTER
G1 F2700 X108.79 Y89.80 E449.46051
G1 X108.79 Y115.30 E452.01051
G1 X79.29 Y115.30 E454.96051
G1 X79.29 Y89.80 E457.51051
G0 F9000 X80.22 Y90.47
;TYPE:FILL
G1 F2700 X104.37 Y114.62 E460.92576
G0 F9000 X103.66 Y114.62
G1 F2700 X79.97 Y90.93 E464.27688
G0 F9000 X79.97 Y91.64
G1 F2700 X102.96 Y114.62 E467.52802
G0 F9000 X102.25 Y114.62
G1 F2700 X79.97 Y92.34 E470.67917
G0 F9000 X79.97 Y93.05
G1 F2700 X101.54 Y114.62 E473.73034
G0 F9000 X100.84 Y114.62
G1 F2700 X79.97 Y93.76 E476.68152
G0 F9000 X79.97 Y94.46
G1 F2700 X100.13 Y114.62 E479.53271
G0 F9000 X99.42 Y114.62
G1 F2700 X79.97 Y95.17 E482.28392
G0 F9000 X79.97 Y95.88
G1 F2700 X98.71 Y114.62 E484.93501
G0 F9000 X98.01 Y114.62
G1 F2700 X79.97 Y96.58 E487.48611
G0 F9000 X79.97 Y97.29
G1 F2700 X97.30 Y114.62 E489.93722
G0 F9000 X96.59 Y114.62
G1 F2700 X79.97 Y98.00 E492.28835
G0 F9000 X79.97 Y98.71
G1 F2700 X95.89 Y114.62 E494.53950
G0 F9000 X95.18 Y114.62
G1 F2700 X79.97 Y99.41 E496.69066
G0 F9000 X79.97 Y100.12
G1 F2700 X94.47 Y114.62 E498.74183
G0 F9000 X93.77 Y114.62
G1 F2700 X79.97 Y100.83 E500.69302
G0 F9000 X79.97 Y101.53
G1 F2700 X93.06 Y114.62 E502.54423
G0 F9000 X92.35 Y114.62
G1 F2700 X79.97 Y102.24 E504.29538
G0 F9000 X79.97 Y102.95
G1 F2700 X91.64 Y114.62 E505.94647
G0 F9000 X90.94 Y114.62
G1 F2700 X79.97 Y103.66 E507.49758
G0 F9000 X79.97 Y104.36
G1 F2700 X90.23 Y114.62 E508.94871
G0 F9000 X89.52 Y114.62
G1 F2700 X79.97 Y105.07 E510.29985
G0 F9000 X79.97 Y105.78
G1 F2700 X88.81 Y114.62 E511.55100
G0 F9000 X88.11 Y114.62
G1 F2700 X79.97 Y106.48 E512.70217
G0 F9000 X79.97 Y107.19
G1 F2700 X87.40 Y114.62 E513.75336
G0 F9000 X86.69 Y114.62
G1 F2700 X79.97 Y107.90 E514.70456
G0 F9000 X79.97 Y108.61
G1 F2700 X85.99 Y114.62 E515.55577
G0 F9000 X85.28 Y114.62
G1 F2700 X79.97 Y109.31 E516.30686
G0 F9000 X79.97 Y110.02
G1 F2700 X84.57 Y114.62 E516.95797
G0 F9000 X83.86 Y114.62
G1 F2700 X79.97 Y110.73 E517.50908
G0 F9000 X79.97 Y111.43
G1 F2700 X83.16 Y114.62 E517.96022
G0 F9000 X82.45 Y114.62
G1 F2700 X79.97 Y112.14 E518.31137
G0 F9000 X79.97 Y112.85
G1 F2700 X81.74 Y114.62 E518.56253
G0 F9000 X81.04 Y114.62
G1 F2700 X79.97 Y113.56 E518.71371
G0 F9000 X79.97 Y114.26
G1 F2700 X80.33 Y114.62 E518.76491
G0 F9000 X80.93 Y90.47
G1 F2700 X105.08 Y114.62 E522.18009
G0 F9000 X105.79 Y114.62
G1 F2700 X81.64 Y90.47 E525.59535
G0 F9000 X82.34 Y90.47
G1 F2700 X106.49 Y114.62 E529.01060
G0 F9000 X107.20 Y114.62
G1 F2700 X83.05 Y90.47 E532.42586
G0 F9000 X83.76 Y90.47
G1 F2700 X107.91 Y114.62 E535.84111
G0 F9000 X108.12 Y114.13
G1 F2700 X84.46 Y90.47 E539.18622
G0 F9000 X85.17 Y90.47
G1 F2700 X108.12 Y113.42 E542.43135
G0 F9000 X108.12 Y112.71
G1 F2700 X85.88 Y90.47 E545.57649
G0 F9000 X86.58 Y90.47
G1 F2700 X108.12 Y112.01 E548.62164
G0 F9000 X108.12 Y111.30
G1 F2700 X87.29 Y90.47 E551.56674
G0 F9000 X88.00 Y90.47
G1 F2700 X108.12 Y110.59 E554.41178
G0 F9000 X108.12 Y109.89
G1 F2700 X88.71 Y90.47 E557.15684
G0 F9000 X89.41 Y90.47
G1 F2700 X108.12 Y109.18 E559.80192
G0 F9000 X108.12 Y108.47
G1 F2700 X90.12 Y90.47 E562.34701
G0 F9000 X90.83 Y90.47
G1 F2700 X108.12 Y107.76 E564.79211
G0 F9000 X108.12 Y107.06
G1 F2700 X91.53 Y90.47 E567.13723
G0 F9000 X92.24 Y90.47
G1 F2700 X108.12 Y106.35 E569.38237
G0 F9000 X108.12 Y105.64
G1 F2700 X92.95 Y90.47 E571.52752
G0 F9000 X93.66 Y90.47
G1 F2700 X108.12 Y104.94 E573.57261
G0 F9000 X108.12 Y104.23
G1 F2700 X94.36 Y90.47 E575.51765
G0 F9000 X95.07 Y90.47
G1 F2700 X108.12 Y103.52 E577.36270
G0 F9000 X108.12 Y102.81
G1 F2700 X95.78 Y90.47 E579.10777
G0 F9000 X96.48 Y90.47
G1 F2700 X108.12 Y102.11 E580.75286
G0 F9000 X108.12 Y101.40
G1 F2700 X97.19 Y90.47 E582.29796
G0 F9000 X97.90 Y90.47
G1 F2700 X108.12 Y100.69 E583.74307
G0 F9000 X108.12 Y99.99
G1 F2700 X98.61 Y90.47 E585.08820
G0 F9000 X99.31 Y90.47
G1 F2700 X108.12 Y99.28 E586.33334
G0 F9000 X108.12 Y98.57
G1 F2700 X100.02 Y90.47 E587.47850
G0 F9000 X100.73 Y90.47
G1 F2700 X108.12 Y97.86 E588.52354
G0 F9000 X108.12 Y97.16
G1 F2700 X101.44 Y90.47 E589.46858
G0 F9000 X102.14 Y90.47
G1 F2700 X108.12 Y96.45 E590.31365
G0 F9000 X108.12 Y95.74
G1 F2700 X102.85 Y90.47 E591.05873
G0 F9000 X103.56 Y90.47
G1 F2700 X108.12 Y95.04 E591.70382
G0 F9000 X108.12 Y94.33
G1 F2700 X104.26 Y90.47 E592.24893
G0 F9000 X104.97 Y90.47
G1 F2700 X108.12 Y93.62 E592.69405
G0 F9000 X108.12 Y92.92
G1 F2700 X105.68 Y90.47 E593.03919
G0 F9000 X106.38 Y90.47
G1 F2700 X108.12 Y92.21 E593.28434
G0 F9000 X108.12 Y91.50
G1 F2700 X107.09 Y90.47 E593.42944
G0 F9000 X107.80 Y90.47
G1 F2700 X108.12 Y90.79 E593.47448
;LAYER:3
G0 F9000 X108.29 Y90.30 Z0.90
;TYPE:WALL-INNER
G1 F3120 X108.29 Y114.80 E595.92448
G1 X79.79 Y114.80 E598.77448
G1 X79.79 Y90.30 E601.22448
G1 X108.29 Y90.30 E604.07448
G0 F9000 X108.79 Y89.80
;TYPE:WALL-OUTER
G1 F3120 X108.79 Y115.30 E606.62448
G1 X79.29 Y115.30 E609.57448
G1 X79.29 Y89.80 E612.12448
G1 X108.79 Y89.80 E615.07448
G0 F9000 X107.87 Y90.47
;TYPE:FILL
G1 F3120 X83.72 Y114.62 E618.48988
G0 F9000 X84.42 Y114.62
G1 F3120 X108.12 Y90.93 E621.84037
G0 F9000 X108.12 Y91.64
G1 F3120 X85.13 Y114.62 E625.09086
G0 F9000 X85.84 Y114.62
G1 F3120 X108.12 Y92.35 E628.24138
G0 F9000 X108.12 Y93.05
G1 F3120 X86.55 Y114.62 E631.29184
G0 F9000 X87.25 Y114.62
G1 F3120 X108.12 Y93.76 E634.24231
G0 F9000 X108.12 Y94.47
G1 F3120 X87.96 Y114.62 E637.09280
G0 F9000 X88.67 Y114.62
G1 F3120 X108.12 Y95.17 E639.84330
G0 F9000 X108.12 Y95.88
G1 F3120 X89.38 Y114.62 E642.49382
G0 F9000 X90.08 Y114.62
G1 F3120 X108.12 Y96.59 E645.04429
G0 F9000 X108.12 Y97.30
G1 F3120 X90.79 Y114.62 E647.49477
G0 F9000 X91.50 Y114.62
G1 F3120 X108.12 Y98.00 E649.84526
G0 F9000 X108.12 Y98.71
G1 F3120 X92.20 Y114.62 E652.09577
G0 F9000 X92.91 Y114.62
G1 F3120 X108.12 Y99.42 E654.24622
G0 F9000 X108.12 Y100.12
G1 F3120 X93.62 Y114.62 E656.29669
G0 F9000 X94.33 Y114.62
G1 F3120 X108.12 Y100.83 E658.24717
G0 F9000 X108.12 Y101.54
G1 F3120 X95.03 Y114.62 E660.09767
G0 F9000 X95.74 Y114.62
G1 F3120 X108.12 Y102.25 E661.84818
G0 F9000 X108.12 Y102.95
G1 F3120 X96.45 Y114.62 E663.49864
